;Generated with Cura_SteamEngine 13.12
M140 S90.000000
M109 T0 S230.000000
T0
M190 S90.000000
;Sliced at: Wed 22-01-2014 21:48:32
;Basic settings: Layer height: 0.3 Walls: 2 Fill: 10
;Print time: #P_TIME#
;Filament used: #F_AMNT#m #F_WGHT#g
;Filament cost: #F_COST#
;M190 S90 ;Uncomment to add your own bed temperature line
;M109 S230 ;Uncomment to add your own temperature line
G21        ;metric values
G90        ;absolute positioning
M107       ;start with the fan off
G28 X0 Y0  ;move X/Y to min endstops
G28 Z0     ;move Z to min endstops
G1 Z15.0 F9000 ;move the platform down 15mm
G92 E0                  ;zero the extruded length
G1 F200 E10              ;extrude 3mm of feed stock
G92 E0                  ;zero the extruded length again
G1 F9000
;Put printing message on LCD screen
M117 Printing...

;Layer count: 137
;LAYER:0
M107
G0 F5400 X40.19 Y24.62 Z0.30
;TYPE:SKIRT
G1 F1200 E0.00000
G1 F1800 X47.19 Y21.28 E0.34816
G1 X47.19 Y7.92 E0.94813
G1 X83.59 Y7.92 E2.58253
G1 X83.59 Y23.84 E3.29722
G1 X58.59 Y23.84 E4.41975
G1 X58.59 Y41.84 E5.22797
G1 X40.19 Y41.84 E6.05415
G1 X40.19 Y24.62 E6.82735
G1 F1200 E6.32735
G0 F5400 X45.19 Y27.77
;TYPE:WALL-INNER
G1 F1200 E6.82735
G1 F1800 X52.19 Y24.44 E7.17551
G1 X52.19 Y12.92 E7.69268
G1 X78.59 Y12.92 E8.87807
G1 X78.59 Y18.84 E9.14375
G1 X53.59 Y18.84 E10.26628
G1 X53.59 Y36.84 E11.07450
G1 X45.19 Y36.84 E11.45167
G1 X45.19 Y27.77 E11.85866
G0 F5400 X44.79 Y27.52
G1 F1800 X51.79 Y24.18 E12.20682
G1 X51.79 Y12.52 E12.73063
G1 X78.99 Y12.52 E13.95194
G1 X78.99 Y19.24 E14.25355
G1 X53.99 Y19.24 E15.37608
G1 X53.99 Y37.24 E16.18430
G1 X44.79 Y37.24 E16.59739
G1 X44.79 Y27.52 E17.03365
G0 F5400 X44.39 Y27.27
G1 F1800 X51.39 Y23.93 E17.38180
G1 X51.39 Y12.12 E17.91222
G1 X79.39 Y12.12 E19.16946
G1 X79.39 Y19.64 E19.50698
G1 X54.39 Y19.64 E20.62951
G1 X54.39 Y37.64 E21.43773
G1 X44.39 Y37.64 E21.88674
G1 X44.39 Y27.27 E22.35232
G0 F5400 X43.99 Y27.02
G1 F1800 X50.99 Y23.68 E22.70048
G1 X50.99 Y11.72 E23.23754
G1 X79.79 Y11.72 E24.53070
G1 X79.79 Y20.04 E24.90414
G1 X54.79 Y20.04 E26.02667
G1 X54.79 Y38.04 E26.83489
G1 X43.99 Y38.04 E27.31982
G1 X43.99 Y27.02 E27.81468
G0 F5400 X43.59 Y26.76
;TYPE:WALL-OUTER
G1 F1800 X50.59 Y23.43 E28.16285
G1 X50.59 Y11.32 E28.70652
G1 X80.19 Y11.32 E30.03559
G1 X80.19 Y20.44 E30.44496
G1 X55.19 Y20.44 E31.56749
G1 X55.19 Y38.44 E32.37571
G1 X43.59 Y38.44 E32.89656
G1 X43.59 Y26.76 E33.42069
G0 F5400 X43.89 Y26.90
G0 X45.33 Y28.08
;TYPE:FILL
G1 F1800 X53.45 Y36.20 E33.93634
G0 F5400 X53.38 Y36.70
G1 F1800 X45.33 Y28.64 E34.44777
G0 F5400 X45.33 Y29.21
G1 F1800 X52.82 Y36.70 E34.92332
G0 F5400 X52.25 Y36.70
G1 F1800 X45.33 Y29.77 E35.36293
G0 F5400 X45.33 Y30.34
G1 F1800 X51.69 Y36.70 E35.76660
G0 F5400 X51.12 Y36.70
G1 F1800 X45.33 Y30.90 E36.13436
G0 F5400 X45.33 Y31.47
G1 F1800 X50.56 Y36.70 E36.46621
G0 F5400 X49.99 Y36.70
G1 F1800 X45.33 Y32.04 E36.76212
G0 F5400 X45.33 Y32.60
G1 F1800 X49.42 Y36.70 E37.02212
G0 F5400 X48.86 Y36.70
G1 F1800 X45.33 Y33.17 E37.24621
G0 F5400 X45.33 Y33.73
G1 F1800 X48.29 Y36.70 E37.43436
G0 F5400 X47.73 Y36.70
G1 F1800 X45.33 Y34.30 E37.58660
G0 F5400 X45.33 Y34.86
G1 F1800 X47.16 Y36.70 E37.70293
G0 F5400 X46.59 Y36.70
G1 F1800 X45.33 Y35.43 E37.78332
G0 F5400 X45.33 Y35.99
G1 F1800 X46.03 Y36.70 E37.82781
G0 F5400 X45.46 Y36.70
G1 F1800 X45.33 Y36.56 E37.83638
G0 F5400 X53.45 Y35.63
G1 F1800 X45.57 Y27.75 E38.33695
G0 F5400 X45.95 Y27.57
G1 F1800 X53.45 Y35.06 E38.81320
G0 F5400 X53.45 Y34.50
G1 F1800 X46.33 Y27.38 E39.26509
G0 F5400 X46.72 Y27.20
G1 F1800 X53.45 Y33.93 E39.69267
G0 F5400 X53.45 Y33.37
G1 F1800 X47.10 Y27.02 E40.09596
G0 F5400 X47.48 Y26.84
G1 F1800 X53.45 Y32.80 E40.47489
G0 F5400 X53.45 Y32.24
G1 F1800 X47.87 Y26.65 E40.82948
G0 F5400 X48.25 Y26.47
G1 F1800 X53.45 Y31.67 E41.15974
G0 F5400 X53.45 Y31.11
G1 F1800 X48.63 Y26.29 E41.46565
G0 F5400 X49.02 Y26.10
G1 F1800 X53.45 Y30.54 E41.74727
G0 F5400 X53.45 Y29.97
G1 F1800 X49.40 Y25.92 E42.00457
G0 F5400 X49.78 Y25.74
G1 F1800 X53.45 Y29.41 E42.23752
G0 F5400 X53.45 Y28.84
G1 F1800 X50.16 Y25.56 E42.44615
G0 F5400 X50.55 Y25.38
G1 F1800 X53.45 Y28.28 E42.63043
G0 F5400 X53.45 Y27.71
G1 F1800 X50.93 Y25.19 E42.79038
G0 F5400 X51.31 Y25.01
G1 F1800 X53.45 Y27.15 E42.92602
G0 F5400 X53.45 Y26.58
G1 F1800 X51.70 Y24.83 E43.03733
G0 F5400 X52.08 Y24.64
G1 F1800 X53.45 Y26.01 E43.12433
G0 F5400 X53.45 Y25.45
G1 F1800 X52.33 Y24.33 E43.19545
G0 F5400 X52.33 Y23.76
G1 F1800 X53.45 Y24.88 E43.26657
G0 F5400 X53.45 Y24.32
G1 F1800 X52.33 Y23.20 E43.33769
G0 F5400 X52.33 Y22.63
G1 F1800 X53.45 Y23.75 E43.40881
G0 F5400 X53.45 Y23.19
G1 F1800 X52.33 Y22.07 E43.47996
G0 F5400 X52.33 Y21.50
G1 F1800 X53.45 Y22.62 E43.55108
G0 F5400 X53.45 Y22.05
G1 F1800 X52.33 Y20.93 E43.62220
G0 F5400 X52.33 Y20.37
G1 F1800 X53.45 Y21.49 E43.69332
G0 F5400 X53.45 Y20.92
G1 F1800 X52.33 Y19.80 E43.76444
G0 F5400 X52.33 Y19.24
G1 F1800 X53.45 Y20.36 E43.83556
G0 F5400 X53.45 Y19.79
G1 F1800 X52.33 Y18.67 E43.90668
G0 F5400 X52.33 Y18.11
G1 F1800 X53.45 Y19.23 E43.97780
G0 F5400 X53.48 Y18.70
G1 F1800 X52.33 Y17.54 E44.05114
G0 F5400 X52.33 Y16.97
G1 F1800 X54.05 Y18.70 E44.16042
G0 F5400 X54.62 Y18.70
G1 F1800 X52.33 Y16.41 E44.30559
G0 F5400 X52.33 Y15.84
G1 F1800 X55.18 Y18.70 E44.48669
G0 F5400 X55.75 Y18.70
G1 F1800 X52.33 Y15.28 E44.70373
G0 F5400 X52.33 Y14.71
G1 F1800 X56.31 Y18.70 E44.95665
G0 F5400 X56.88 Y18.70
G1 F1800 X52.33 Y14.15 E45.24551
G0 F5400 X52.33 Y13.58
G1 F1800 X57.45 Y18.70 E45.57031
G0 F5400 X58.01 Y18.70
G1 F1800 X52.37 Y13.06 E45.92829
G0 F5400 X52.94 Y13.06
G1 F1800 X58.58 Y18.70 E46.28624
G0 F5400 X59.14 Y18.70
G1 F1800 X53.51 Y13.06 E46.64419
G0 F5400 X54.07 Y13.06
G1 F1800 X59.71 Y18.70 E47.00214
G0 F5400 X60.27 Y18.70
G1 F1800 X54.64 Y13.06 E47.36009
G0 F5400 X55.20 Y13.06
G1 F1800 X60.84 Y18.70 E47.71804
G0 F5400 X61.41 Y18.70
G1 F1800 X55.77 Y13.06 E48.07598
G0 F5400 X56.33 Y13.06
G1 F1800 X61.97 Y18.70 E48.43393
G0 F5400 X62.54 Y18.70
G1 F1800 X56.90 Y13.06 E48.79188
G0 F5400 X57.47 Y13.06
G1 F1800 X63.10 Y18.70 E49.14983
G0 F5400 X63.67 Y18.70
G1 F1800 X58.03 Y13.06 E49.50778
G0 F5400 X58.60 Y13.06
G1 F1800 X64.23 Y18.70 E49.86573
G0 F5400 X64.80 Y18.70
G1 F1800 X59.16 Y13.06 E50.22368
G0 F5400 X59.73 Y13.06
G1 F1800 X65.36 Y18.70 E50.58163
G0 F5400 X65.93 Y18.70
G1 F1800 X60.29 Y13.06 E50.93957
G0 F5400 X60.86 Y13.06
G1 F1800 X66.50 Y18.70 E51.29752
G0 F5400 X67.06 Y18.70
G1 F1800 X61.42 Y13.06 E51.65550
G0 F5400 X61.99 Y13.06
G1 F1800 X67.63 Y18.70 E52.01345
G0 F5400 X68.19 Y18.70
G1 F1800 X62.56 Y13.06 E52.37140
G0 F5400 X63.12 Y13.06
G1 F1800 X68.76 Y18.70 E52.72935
G0 F5400 X69.32 Y18.70
G1 F1800 X63.69 Y13.06 E53.08730
G0 F5400 X64.25 Y13.06
G1 F1800 X69.89 Y18.70 E53.44525
G0 F5400 X70.46 Y18.70
G1 F1800 X64.82 Y13.06 E53.80320
G0 F5400 X65.38 Y13.06
G1 F1800 X71.02 Y18.70 E54.16114
G0 F5400 X71.59 Y18.70
G1 F1800 X65.95 Y13.06 E54.51909
G0 F5400 X66.52 Y13.06
G1 F1800 X72.15 Y18.70 E54.87704
G0 F5400 X72.72 Y18.70
G1 F1800 X67.08 Y13.06 E55.23499
G0 F5400 X67.65 Y13.06
G1 F1800 X73.28 Y18.70 E55.59294
G0 F5400 X73.85 Y18.70
G1 F1800 X68.21 Y13.06 E55.95089
G0 F5400 X68.78 Y13.06
G1 F1800 X74.42 Y18.70 E56.30884
G0 F5400 X74.98 Y18.70
G1 F1800 X69.34 Y13.06 E56.66679
G0 F5400 X69.91 Y13.06
G1 F1800 X75.55 Y18.70 E57.02473
G0 F5400 X76.11 Y18.70
G1 F1800 X70.47 Y13.06 E57.38268
G0 F5400 X71.04 Y13.06
G1 F1800 X76.68 Y18.70 E57.74063
G0 F5400 X77.24 Y18.70
G1 F1800 X71.61 Y13.06 E58.09858
G0 F5400 X72.17 Y13.06
G1 F1800 X77.81 Y18.70 E58.45656
G0 F5400 X78.38 Y18.70
G1 F1800 X72.74 Y13.06 E58.81451
G0 F5400 X73.30 Y13.06
G1 F1800 X78.45 Y18.20 E59.14131
G0 F5400 X78.45 Y17.64
G1 F1800 X73.87 Y13.06 E59.43217
G0 F5400 X74.44 Y13.06
G1 F1800 X78.45 Y17.07 E59.68712
G0 F5400 X78.45 Y16.51
G1 F1800 X75.00 Y13.06 E59.90617
G0 F5400 X75.57 Y13.06
G1 F1800 X78.45 Y15.94 E60.08927
G0 F5400 X78.45 Y15.38
G1 F1800 X76.13 Y13.06 E60.23646
G0 F5400 X76.70 Y13.06
G1 F1800 X78.45 Y14.81 E60.34775
G0 F5400 X78.45 Y14.24
G1 F1800 X77.26 Y13.06 E60.42309
G0 F5400 X77.83 Y13.06
G1 F1800 X78.45 Y13.68 E60.46252
;LAYER:1
M106 S255
G0 F9000 X78.59 Y12.92 Z0.60
;TYPE:WALL-INNER
G1 F2100 X78.59 Y18.84 E60.72820
G1 X53.59 Y18.84 E61.85073
G1 X53.59 Y36.84 E62.65895
G1 X45.19 Y36.84 E63.03612
G1 X45.19 Y27.77 E63.44311
G1 X52.19 Y24.44 E63.79126
G1 X52.19 Y12.92 E64.30844
G1 X78.59 Y12.92 E65.49383
G0 F9000 X78.99 Y12.52
G1 F2100 X78.99 Y19.24 E65.79543
G1 X53.99 Y19.24 E66.91796
G1 X53.99 Y37.24 E67.72618
G1 X44.79 Y37.24 E68.13927
G1 X44.79 Y27.52 E68.57553
G1 X51.79 Y24.18 E68.92369
G1 X51.79 Y12.52 E69.44750
G1 X78.99 Y12.52 E70.66882
G0 F9000 X79.39 Y12.12
G1 F2100 X79.39 Y19.64 E71.00634
G1 X54.39 Y19.64 E72.12887
G1 X54.39 Y37.64 E72.93709
G1 X44.39 Y37.64 E73.38610
G1 X44.39 Y27.27 E73.85168
G1 X51.39 Y23.93 E74.19984
G1 X51.39 Y12.12 E74.73026
G1 X79.39 Y12.12 E75.98749
G0 F9000 X79.79 Y11.72
G1 F2100 X79.79 Y20.04 E76.36093
G1 X54.79 Y20.04 E77.48346
G1 X54.79 Y38.04 E78.29168
G1 X43.99 Y38.04 E78.77662
G1 X43.99 Y27.02 E79.27147
G1 X50.99 Y23.68 E79.61963
G1 X50.99 Y11.72 E80.15669
G1 X79.79 Y11.72 E81.44985
G0 F9000 X80.19 Y11.32
;TYPE:WALL-OUTER
G1 F2100 X80.19 Y20.44 E81.85921
G1 X55.19 Y20.44 E82.98174
G1 X55.19 Y38.44 E83.78996
G1 X43.59 Y38.44 E84.31081
G1 X43.59 Y26.76 E84.83495
G1 X50.59 Y23.43 E85.18312
G1 X50.59 Y11.32 E85.72679
G1 X80.19 Y11.32 E87.05586
G0 F9000 X79.89 Y11.53
G0 X78.30 Y13.06
;TYPE:FILL
G1 F2100 X72.66 Y18.70 E87.41381
G0 F9000 X73.23 Y18.70
G1 F2100 X78.45 Y13.47 E87.74544
G0 F9000 X78.45 Y14.04
G1 F2100 X73.79 Y18.70 E88.04116
G0 F9000 X74.36 Y18.70
G1 F2100 X78.45 Y14.60 E88.30093
G0 F9000 X78.45 Y15.17
G1 F2100 X74.92 Y18.70 E88.52477
G0 F9000 X75.49 Y18.70
G1 F2100 X78.45 Y15.73 E88.71273
G0 F9000 X78.45 Y16.30
G1 F2100 X76.06 Y18.70 E88.86475
G0 F9000 X76.62 Y18.70
G1 F2100 X78.45 Y16.87 E88.98083
G0 F9000 X78.45 Y17.43
G1 F2100 X77.19 Y18.70 E89.06100
G0 F9000 X77.75 Y18.70
G1 F2100 X78.45 Y18.00 E89.10526
G0 F9000 X78.45 Y18.56
G1 F2100 X78.32 Y18.70 E89.11357
G0 F9000 X77.73 Y13.06
G1 F2100 X72.10 Y18.70 E89.47152
G0 F9000 X71.53 Y18.70
G1 F2100 X77.17 Y13.06 E89.82947
G0 F9000 X76.60 Y13.06
G1 F2100 X70.97 Y18.70 E90.18742
G0 F9000 X70.40 Y18.70
G1 F2100 X76.04 Y13.06 E90.54537
G0 F9000 X75.47 Y13.06
G1 F2100 X69.83 Y18.70 E90.90332
G0 F9000 X69.27 Y18.70
G1 F2100 X74.91 Y13.06 E91.26127
G0 F9000 X74.34 Y13.06
G1 F2100 X68.70 Y18.70 E91.61922
G0 F9000 X68.14 Y18.70
G1 F2100 X73.77 Y13.06 E91.97716
G0 F9000 X73.21 Y13.06
G1 F2100 X67.57 Y18.70 E92.33511
G0 F9000 X67.00 Y18.70
G1 F2100 X72.64 Y13.06 E92.69306
G0 F9000 X72.08 Y13.06
G1 F2100 X66.44 Y18.70 E93.05101
G0 F9000 X65.87 Y18.70
G1 F2100 X71.51 Y13.06 E93.40896
G0 F9000 X70.94 Y13.06
G1 F2100 X65.31 Y18.70 E93.76691
G0 F9000 X64.74 Y18.70
G1 F2100 X70.38 Y13.06 E94.12486
G0 F9000 X69.81 Y13.06
G1 F2100 X64.18 Y18.70 E94.48281
G0 F9000 X63.61 Y18.70
G1 F2100 X69.25 Y13.06 E94.84075
G0 F9000 X68.68 Y13.06
G1 F2100 X63.05 Y18.70 E95.19870
G0 F9000 X62.48 Y18.70
G1 F2100 X68.12 Y13.06 E95.55668
G0 F9000 X67.55 Y13.06
G1 F2100 X61.91 Y18.70 E95.91463
G0 F9000 X61.35 Y18.70
G1 F2100 X66.98 Y13.06 E96.27258
G0 F9000 X66.42 Y13.06
G1 F2100 X60.78 Y18.70 E96.63053
G0 F9000 X60.22 Y18.70
G1 F2100 X65.85 Y13.06 E96.98848
G0 F9000 X65.29 Y13.06
G1 F2100 X59.65 Y18.70 E97.34643
G0 F9000 X59.09 Y18.70
G1 F2100 X64.72 Y13.06 E97.70438
G0 F9000 X64.16 Y13.06
G1 F2100 X58.52 Y18.70 E98.06232
G0 F9000 X57.95 Y18.70
G1 F2100 X63.59 Y13.06 E98.42027
G0 F9000 X63.02 Y13.06
G1 F2100 X57.39 Y18.70 E98.77822
G0 F9000 X56.82 Y18.70
G1 F2100 X62.46 Y13.06 E99.13617
G0 F9000 X61.89 Y13.06
G1 F2100 X56.26 Y18.70 E99.49412
G0 F9000 X55.69 Y18.70
G1 F2100 X61.33 Y13.06 E99.85207
G0 F9000 X60.76 Y13.06
G1 F2100 X55.13 Y18.70 E100.21002
G0 F9000 X54.56 Y18.70
G1 F2100 X60.20 Y13.06 E100.56797
G0 F9000 X59.63 Y13.06
G1 F2100 X53.99 Y18.70 E100.92591
G0 F9000 X53.45 Y19.24
G1 F2100 X52.33 Y20.36 E100.99703
G0 F9000 X52.33 Y20.93
G1 F2100 X53.45 Y19.81 E101.06815
G0 F9000 X53.45 Y20.37
G1 F2100 X52.33 Y21.49 E101.13927
G0 F9000 X52.33 Y22.06
G1 F2100 X53.45 Y20.94 E101.21039
G0 F9000 X53.45 Y21.50
G1 F2100 X52.33 Y22.62 E101.28151
G0 F9000 X52.33 Y23.19
G1 F2100 X53.45 Y22.07 E101.35263
G0 F9000 X53.45 Y22.63
G1 F2100 X52.33 Y23.75 E101.42375
G0 F9000 X52.33 Y24.32
G1 F2100 X53.45 Y23.20 E101.49487
G0 F9000 X53.45 Y23.77
G1 F2100 X45.33 Y31.89 E102.01049
G0 F9000 X45.33 Y32.45
G1 F2100 X53.45 Y24.33 E102.52611
G0 F9000 X53.45 Y24.90
G1 F2100 X45.33 Y33.02 E103.04170
G0 F9000 X45.33 Y33.58
G1 F2100 X53.45 Y25.46 E103.55732
G0 F9000 X53.45 Y26.03
G1 F2100 X45.33 Y34.15 E104.07294
G0 F9000 X45.33 Y34.71
G1 F2100 X53.45 Y26.59 E104.58852
G0 F9000 X53.45 Y27.16
G1 F2100 X45.33 Y35.28 E105.10414
G0 F9000 X45.33 Y35.84
G1 F2100 X53.45 Y27.73 E105.61976
G0 F9000 X53.45 Y28.29
G1 F2100 X45.33 Y36.41 E106.13538
G0 F9000 X45.61 Y36.70
G1 F2100 X53.45 Y28.86 E106.63315
G0 F9000 X53.45 Y29.42
G1 F2100 X46.18 Y36.70 E107.09505
G0 F9000 X46.74 Y36.70
G1 F2100 X53.45 Y29.99 E107.52101
G0 F9000 X53.45 Y30.55
G1 F2100 X47.31 Y36.70 E107.91103
G0 F9000 X47.87 Y36.70
G1 F2100 X53.45 Y31.12 E108.26516
G0 F9000 X53.45 Y31.68
G1 F2100 X48.44 Y36.70 E108.58336
G0 F9000 X49.01 Y36.70
G1 F2100 X53.45 Y32.25 E108.86562
G0 F9000 X53.45 Y32.82
G1 F2100 X49.57 Y36.70 E109.11197
G0 F9000 X50.14 Y36.70
G1 F2100 X53.45 Y33.38 E109.32241
G0 F9000 X53.45 Y33.95
G1 F2100 X50.70 Y36.70 E109.49690
G0 F9000 X51.27 Y36.70
G1 F2100 X53.45 Y34.51 E109.63549
G0 F9000 X53.45 Y35.08
G1 F2100 X51.83 Y36.70 E109.73817
G0 F9000 X52.40 Y36.70
G1 F2100 X53.45 Y35.65 E109.80491
G0 F9000 X53.45 Y36.21
G1 F2100 X52.97 Y36.70 E109.83574
G0 F9000 X45.33 Y31.32
G1 F2100 X51.94 Y24.71 E110.25538
G0 F9000 X50.86 Y25.23
G1 F2100 X45.33 Y30.75 E110.60637
G0 F9000 X45.33 Y30.19
G1 F2100 X49.78 Y25.74 E110.88876
G0 F9000 X48.70 Y26.26
G1 F2100 X45.33 Y29.62 E111.10253
G0 F9000 X45.33 Y29.06
G1 F2100 X47.62 Y26.77 E111.24769
G0 F9000 X46.53 Y27.29
G1 F2100 X45.33 Y28.49 E111.32421
G0 F9000 X45.33 Y27.93
G1 F2100 X45.45 Y27.80 E111.33208
G0 F9000 X50.96 Y23.66
G0 X52.33 Y19.79
G1 F2100 X59.07 Y13.06 E111.75982
G0 F9000 X58.50 Y13.06
G1 F2100 X52.33 Y19.23 E112.15164
G0 F9000 X52.33 Y18.66
G1 F2100 X57.93 Y13.06 E112.50753
G0 F9000 X57.37 Y13.06
G1 F2100 X52.33 Y18.10 E112.82747
G0 F9000 X52.33 Y17.53
G1 F2100 X56.80 Y13.06 E113.11154
G0 F9000 X56.24 Y13.06
G1 F2100 X52.33 Y16.97 E113.35966
G0 F9000 X52.33 Y16.40
G1 F2100 X55.67 Y13.06 E113.57185
G0 F9000 X55.11 Y13.06
G1 F2100 X52.33 Y15.83 E113.74812
G0 F9000 X52.33 Y15.27
G1 F2100 X54.54 Y13.06 E113.88849
G0 F9000 X53.97 Y13.06
G1 F2100 X52.33 Y14.70 E113.99292
G0 F9000 X52.33 Y14.14
G1 F2100 X53.41 Y13.06 E114.06143
G0 F9000 X52.84 Y13.06
G1 F2100 X52.33 Y13.57 E114.09404
;LAYER:2
G0 F9000 X52.19 Y12.92 Z0.90
;TYPE:WALL-INNER
G1 F2400 X78.59 Y12.92 E115.27943
G1 X78.59 Y18.84 E115.54511
G1 X53.59 Y18.84 E116.66764
G1 X53.59 Y36.84 E117.47586
G1 X45.19 Y36.84 E117.85303
G1 X45.19 Y27.77 E118.26002
G1 X52.19 Y24.44 E118.60817
G1 X52.19 Y12.92 E119.12534
G0 F9000 X51.79 Y12.52
G1 F2400 X78.99 Y12.52 E120.34666
G1 X78.99 Y19.24 E120.64826
G1 X53.99 Y19.24 E121.77079
G1 X53.99 Y37.24 E122.57901
G1 X44.79 Y37.24 E122.99210
G1 X44.79 Y27.52 E123.42836
G1 X51.79 Y24.18 E123.77652
G1 X51.79 Y12.52 E124.30033
G0 F9000 X51.39 Y12.12
G1 F2400 X79.39 Y12.12 E125.55757
G1 X79.39 Y19.64 E125.89509
G1 X54.39 Y19.64 E127.01762
G1 X54.39 Y37.64 E127.82584
G1 X44.39 Y37.64 E128.27485
G1 X44.39 Y27.27 E128.74043
G1 X51.39 Y23.93 E129.08859
G1 X51.39 Y12.12 E129.61901
G0 F9000 X50.99 Y11.72
G1 F2400 X79.79 Y11.72 E130.91216
G1 X79.79 Y20.04 E131.28560
G1 X54.79 Y20.04 E132.40813
G1 X54.79 Y38.04 E133.21635
G1 X43.99 Y38.04 E133.70129
G1 X43.99 Y27.02 E134.19614
G1 X50.99 Y23.68 E134.54430
G1 X50.99 Y11.72 E135.08136
G0 F9000 X50.59 Y11.32
;TYPE:WALL-OUTER
G1 F2400 X80.19 Y11.32 E136.41044
G1 X80.19 Y20.44 E136.81980
G1 X55.19 Y20.44 E137.94233
G1 X55.19 Y38.44 E138.75055
G1 X43.59 Y38.44 E139.27141
G1 X43.59 Y26.76 E139.79554
G1 X50.59 Y23.43 E140.14372
G1 X50.59 Y11.32 E140.68738
G0 F9000 X50.89 Y11.53
G0 X52.37 Y13.06
;TYPE:FILL
G1 F2400 X58.01 Y18.70 E141.04536
G0 F9000 X58.58 Y18.70
G1 F2400 X52.94 Y13.06 E141.40331
G0 F9000 X53.51 Y13.06
G1 F2400 X59.14 Y18.70 E141.76126
G0 F9000 X59.71 Y18.70
G1 F2400 X54.07 Y13.06 E142.11921
G0 F9000 X54.64 Y13.06
G1 F2400 X60.27 Y18.70 E142.47715
G0 F9000 X60.84 Y18.70
G1 F2400 X55.20 Y13.06 E142.83510
G0 F9000 X55.77 Y13.06
G1 F2400 X61.41 Y18.70 E143.19305
G0 F9000 X61.97 Y18.70
G1 F2400 X56.33 Y13.06 E143.55100
G0 F9000 X56.90 Y13.06
G1 F2400 X62.54 Y18.70 E143.90895
G0 F9000 X63.10 Y18.70
G1 F2400 X57.47 Y13.06 E144.26690
G0 F9000 X58.03 Y13.06
G1 F2400 X63.67 Y18.70 E144.62485
G0 F9000 X64.23 Y18.70
G1 F2400 X58.60 Y13.06 E144.98280
G0 F9000 X59.16 Y13.06
G1 F2400 X64.80 Y18.70 E145.34074
G0 F9000 X65.36 Y18.70
G1 F2400 X59.73 Y13.06 E145.69869
G0 F9000 X60.29 Y13.06
G1 F2400 X65.93 Y18.70 E146.05664
G0 F9000 X66.50 Y18.70
G1 F2400 X60.86 Y13.06 E146.41459
G0 F9000 X61.42 Y13.06
G1 F2400 X67.06 Y18.70 E146.77257
G0 F9000 X67.63 Y18.70
G1 F2400 X61.99 Y13.06 E147.13052
G0 F9000 X62.56 Y13.06
G1 F2400 X68.19 Y18.70 E147.48847
G0 F9000 X68.76 Y18.70
G1 F2400 X63.12 Y13.06 E147.84642
G0 F9000 X63.69 Y13.06
G1 F2400 X69.32 Y18.70 E148.20437
G0 F9000 X69.89 Y18.70
G1 F2400 X64.25 Y13.06 E148.56231
G0 F9000 X64.82 Y13.06
G1 F2400 X70.46 Y18.70 E148.92026
G0 F9000 X71.02 Y18.70
G1 F2400 X65.38 Y13.06 E149.27821
G0 F9000 X65.95 Y13.06
G1 F2400 X71.59 Y18.70 E149.63616
G0 F9000 X72.15 Y18.70
G1 F2400 X66.52 Y13.06 E149.99411
G0 F9000 X67.08 Y13.06
G1 F2400 X72.72 Y18.70 E150.35206
G0 F9000 X73.28 Y18.70
G1 F2400 X67.65 Y13.06 E150.71001
G0 F9000 X68.21 Y13.06
G1 F2400 X73.85 Y18.70 E151.06796
G0 F9000 X74.42 Y18.70
G1 F2400 X68.78 Y13.06 E151.42590
G0 F9000 X69.34 Y13.06
G1 F2400 X74.98 Y18.70 E151.78385
G0 F9000 X75.55 Y18.70
G1 F2400 X69.91 Y13.06 E152.14180
G0 F9000 X70.47 Y13.06
G1 F2400 X76.11 Y18.70 E152.49975
G0 F9000 X76.68 Y18.70
G1 F2400 X71.04 Y13.06 E152.85770
G0 F9000 X71.61 Y13.06
G1 F2400 X77.24 Y18.70 E153.21565
G0 F9000 X77.81 Y18.70
G1 F2400 X72.17 Y13.06 E153.57363
G0 F9000 X72.74 Y13.06
G1 F2400 X78.38 Y18.70 E153.93158
G0 F9000 X78.45 Y18.20
G1 F2400 X73.30 Y13.06 E154.25838
G0 F9000 X73.87 Y13.06
G1 F2400 X78.45 Y17.64 E154.54924
G0 F9000 X78.45 Y17.07
G1 F2400 X74.44 Y13.06 E154.80419
G0 F9000 X75.00 Y13.06
G1 F2400 X78.45 Y16.51 E155.02323
G0 F9000 X78.45 Y15.94
G1 F2400 X75.57 Y13.06 E155.20634
G0 F9000 X76.13 Y13.06
G1 F2400 X78.45 Y15.38 E155.35353
G0 F9000 X78.45 Y14.81
G1 F2400 X76.70 Y13.06 E155.46481
G0 F9000 X77.26 Y13.06
G1 F2400 X78.45 Y14.24 E155.54016
G0 F9000 X78.45 Y13.68
G1 F2400 X77.83 Y13.06 E155.57959
G0 F9000 X57.45 Y18.70
G1 F2400 X52.33 Y13.58 E155.90439
G0 F9000 X52.33 Y14.15
G1 F2400 X56.88 Y18.70 E156.19325
G0 F9000 X56.31 Y18.70
G1 F2400 X52.33 Y14.71 E156.44617
G0 F9000 X52.33 Y15.28
G1 F2400 X55.75 Y18.70 E156.66321
G0 F9000 X55.18 Y18.70
G1 F2400 X52.33 Y15.84 E156.84432
G0 F9000 X52.33 Y16.41
G1 F2400 X54.62 Y18.70 E156.98948
G0 F9000 X54.05 Y18.70
G1 F2400 X52.33 Y16.97 E157.09876
G0 F9000 X52.33 Y17.54
G1 F2400 X53.48 Y18.70 E157.17210
G0 F9000 X53.45 Y19.23
G1 F2400 X52.33 Y18.11 E157.24322
G0 F9000 X52.33 Y18.67
G1 F2400 X53.45 Y19.79 E157.31434
G0 F9000 X53.45 Y20.36
G1 F2400 X52.33 Y19.24 E157.38546
G0 F9000 X52.33 Y19.80
G1 F2400 X53.45 Y20.92 E157.45658
G0 F9000 X53.45 Y21.49
G1 F2400 X52.33 Y20.37 E157.52770
G0 F9000 X52.33 Y20.93
G1 F2400 X53.45 Y22.05 E157.59882
G0 F9000 X53.45 Y22.62
G1 F2400 X52.33 Y21.50 E157.66994
G0 F9000 X52.33 Y22.07
G1 F2400 X53.45 Y23.19 E157.74109
G0 F9000 X53.45 Y23.75
G1 F2400 X52.33 Y22.63 E157.81221
G0 F9000 X52.33 Y23.20
G1 F2400 X53.45 Y24.32 E157.88333
G0 F9000 X53.45 Y24.88
G1 F2400 X52.33 Y23.76 E157.95445
G0 F9000 X52.33 Y24.33
G1 F2400 X53.45 Y25.45 E158.02557
G0 F9000 X53.45 Y26.01
G1 F2400 X52.08 Y24.64 E158.11257
G0 F9000 X51.70 Y24.83
G1 F2400 X53.45 Y26.58 E158.22388
G0 F9000 X53.45 Y27.15
G1 F2400 X51.31 Y25.01 E158.35952
G0 F9000 X50.93 Y25.19
G1 F2400 X53.45 Y27.71 E158.51947
G0 F9000 X53.45 Y28.28
G1 F2400 X50.55 Y25.38 E158.70375
G0 F9000 X50.16 Y25.56
G1 F2400 X53.45 Y28.84 E158.91238
G0 F9000 X53.45 Y29.41
G1 F2400 X49.78 Y25.74 E159.14533
G0 F9000 X49.40 Y25.92
G1 F2400 X53.45 Y29.97 E159.40263
G0 F9000 X53.45 Y30.54
G1 F2400 X49.02 Y26.10 E159.68425
G0 F9000 X48.63 Y26.29
G1 F2400 X53.45 Y31.11 E159.99016
G0 F9000 X53.45 Y31.67
G1 F2400 X48.25 Y26.47 E160.32042
G0 F9000 X47.87 Y26.65
G1 F2400 X53.45 Y32.24 E160.67501
G0 F9000 X53.45 Y32.80
G1 F2400 X47.48 Y26.84 E161.05394
G0 F9000 X47.10 Y27.02
G1 F2400 X53.45 Y33.37 E161.45723
G0 F9000 X53.45 Y33.93
G1 F2400 X46.72 Y27.20 E161.88481
G0 F9000 X46.33 Y27.38
G1 F2400 X53.45 Y34.50 E162.33670
G0 F9000 X53.45 Y35.06
G1 F2400 X45.95 Y27.57 E162.81295
G0 F9000 X45.57 Y27.75
G1 F2400 X53.45 Y35.63 E163.31352
G0 F9000 X53.45 Y36.20
G1 F2400 X45.33 Y28.08 E163.82917
G0 F9000 X45.33 Y28.64
G1 F2400 X53.38 Y36.70 E164.34060
G0 F9000 X52.82 Y36.70
G1 F2400 X45.33 Y29.21 E164.81615
G0 F9000 X45.33 Y29.77
G1 F2400 X52.25 Y36.70 E165.25576
G0 F9000 X51.69 Y36.70
G1 F2400 X45.33 Y30.34 E165.65943
G0 F9000 X45.33 Y30.90
G1 F2400 X51.12 Y36.70 E166.02719
G0 F9000 X50.56 Y36.70
G1 F2400 X45.33 Y31.47 E166.35904
G0 F9000 X45.33 Y32.04
G1 F2400 X49.99 Y36.70 E166.65495
G0 F9000 X49.42 Y36.70
G1 F2400 X45.33 Y32.60 E166.91495
G0 F9000 X45.33 Y33.17
G1 F2400 X48.86 Y36.70 E167.13904
G0 F9000 X48.29 Y36.70
G1 F2400 X45.33 Y33.73 E167.32719
G0 F9000 X45.33 Y34.30
G1 F2400 X47.73 Y36.70 E167.47943
G0 F9000 X47.16 Y36.70
G1 F2400 X45.33 Y34.86 E167.59576
G0 F9000 X45.33 Y35.43
G1 F2400 X46.59 Y36.70 E167.67615
G0 F9000 X46.03 Y36.70
G1 F2400 X45.33 Y35.99 E167.72063
G0 F9000 X45.33 Y36.56
G1 F2400 X45.46 Y36.70 E167.72921
;LAYER:3
G0 F9000 X45.19 Y36.84 Z1.20
;TYPE:WALL-INNER
G1 F2700 X45.19 Y27.77 E168.13619
G1 X52.19 Y24.44 E168.48435
G1 X52.19 Y12.92 E169.00152
G1 X78.59 Y12.92 E170.18691
G1 X78.59 Y18.84 E170.45259
G1 X53.59 Y18.84 E171.57512
G1 X53.59 Y36.84 E172.38334
G1 X45.19 Y36.84 E172.76051
G0 F9000 X44.79 Y37.24
G1 F2700 X44.79 Y27.52 E173.19677
G1 X51.79 Y24.18 E173.54493
G1 X51.79 Y12.52 E174.06875
G1 X78.99 Y12.52 E175.29006
G1 X78.99 Y19.24 E175.59166
G1 X53.99 Y19.24 E176.71419
G1 X53.99 Y37.24 E177.52241
G1 X44.79 Y37.24 E177.93550
G0 F9000 X44.39 Y37.64
G1 F2700 X44.39 Y27.27 E178.40108
G1 X51.39 Y23.93 E178.74924
G1 X51.39 Y12.12 E179.27966
G1 X79.39 Y12.12 E180.53689
G1 X79.39 Y19.64 E180.87441
G1 X54.39 Y19.64 E181.99694
G1 X54.39 Y37.64 E182.80516
G1 X44.39 Y37.64 E183.25418
G0 F9000 X43.99 Y38.04
G1 F2700 X43.99 Y27.02 E183.74903
G1 X50.99 Y23.68 E184.09719
G1 X50.99 Y11.72 E184.63425
G1 X79.79 Y11.72 E185.92741
G1 X79.79 Y20.04 E186.30085
G1 X54.79 Y20.04 E187.42338
G1 X54.79 Y38.04 E188.23160
G1 X43.99 Y38.04 E188.71653
G0 F9000 X43.59 Y38.44
;TYPE:WALL-OUTER
G1 F2700 X43.59 Y26.76 E189.24066
G1 X50.59 Y23.43 E189.58884
G1 X50.59 Y11.32 E190.13250
G1 X80.19 Y11.32 E191.46158
G1 X80.19 Y20.44 E191.87094
G1 X55.19 Y20.44 E192.99347
G1 X55.19 Y38.44 E193.80169
G1 X43.59 Y38.44 E194.32255
G0 F9000 X43.80 Y38.14
G0 X45.61 Y36.70
;TYPE:FILL
G1 F2700 X53.45 Y28.86 E194.82032
G0 F9000 X53.45 Y29.42
G1 F2700 X46.18 Y36.70 E195.28222
G0 F9000 X46.74 Y36.70
G1 F2700 X53.45 Y29.99 E195.70818
G0 F9000 X53.45 Y30.55
G1 F2700 X47.31 Y36.70 E196.09819
G0 F9000 X47.87 Y36.70
G1 F2700 X53.45 Y31.12 E196.45233
G0 F9000 X53.45 Y31.68
G1 F2700 X48.44 Y36.70 E196.77053
G0 F9000 X49.01 Y36.70
G1 F2700 X53.45 Y32.25 E197.05279
G0 F9000 X53.45 Y32.82
G1 F2700 X49.57 Y36.70 E197.29914
G0 F9000 X50.14 Y36.70
G1 F2700 X53.45 Y33.38 E197.50957
G0 F9000 X53.45 Y33.95
G1 F2700 X50.70 Y36.70 E197.68407
G0 F9000 X51.27 Y36.70
G1 F2700 X53.45 Y34.51 E197.82266
G0 F9000 X53.45 Y35.08
G1 F2700 X51.83 Y36.70 E197.92534
G0 F9000 X52.40 Y36.70
G1 F2700 X53.45 Y35.65 E197.99208
G0 F9000 X53.45 Y36.21
G1 F2700 X52.97 Y36.70 E198.02291
G0 F9000 X45.33 Y36.41
G1 F2700 X53.45 Y28.29 E198.53853
G0 F9000 X53.45 Y27.73
G1 F2700 X45.33 Y35.84 E199.05414
G0 F9000 X45.33 Y35.28
G1 F2700 X53.45 Y27.16 E199.56976
G0 F9000 X53.45 Y26.59
G1 F2700 X45.33 Y34.71 E200.08535
G0 F9000 X45.33 Y34.15
G1 F2700 X53.45 Y26.03 E200.60097
G0 F9000 X53.45 Y25.46
G1 F2700 X45.33 Y33.58 E201.11659
G0 F9000 X45.33 Y33.02
G1 F2700 X53.45 Y24.90 E201.63218
G0 F9000 X53.45 Y24.33
G1 F2700 X45.33 Y32.45 E202.14779
G0 F9000 X45.33 Y31.89
G1 F2700 X53.45 Y23.77 E202.66341
G0 F9000 X53.45 Y23.20
G1 F2700 X52.33 Y24.32 E202.73453
G0 F9000 X51.94 Y24.71
G1 F2700 X45.33 Y31.32 E203.15417
G0 F9000 X45.33 Y30.75
G1 F2700 X50.86 Y25.23 E203.50517
G0 F9000 X49.78 Y25.74
G1 F2700 X45.33 Y30.19 E203.78755
G0 F9000 X45.33 Y29.62
G1 F2700 X48.70 Y26.26 E204.00132
G0 F9000 X47.62 Y26.77
G1 F2700 X45.33 Y29.06 E204.14648
G0 F9000 X45.33 Y28.49
G1 F2700 X46.53 Y27.29 E204.22300
G0 F9000 X45.45 Y27.80
G1 F2700 X45.33 Y27.93 E204.23088
G0 F9000 X52.33 Y23.75
G1 F2700 X53.45 Y22.63 E204.30200
G0 F9000 X53.45 Y22.07
G1 F2700 X52.33 Y23.19 E204.37311
G0 F9000 X52.33 Y22.62
G1 F2700 X53.45 Y21.50 E204.44423
G0 F9000 X53.45 Y20.94
G1 F2700 X52.33 Y22.06 E204.51535
G0 F9000 X52.33 Y21.49
G1 F2700 X53.45 Y20.37 E204.58647
G0 F9000 X53.45 Y19.81
G1 F2700 X52.33 Y20.93 E204.65759
G0 F9000 X52.33 Y20.36
G1 F2700 X53.45 Y19.24 E204.72871
G0 F9000 X53.99 Y18.70
G1 F2700 X59.63 Y13.06 E205.08666
G0 F9000 X59.07 Y13.06
G1 F2700 X52.33 Y19.79 E205.51440
G0 F9000 X52.33 Y19.23
G1 F2700 X58.50 Y13.06 E205.90622
G0 F9000 X57.93 Y13.06
G1 F2700 X52.33 Y18.66 E206.26211
G0 F9000 X52.33 Y18.10
G1 F2700 X57.37 Y13.06 E206.58205
G0 F9000 X56.80 Y13.06
G1 F2700 X52.33 Y17.53 E206.86612
G0 F9000 X52.33 Y16.97
G1 F2700 X56.24 Y13.06 E207.11425
G0 F9000 X55.67 Y13.06
G1 F2700 X52.33 Y16.40 E207.32643
G0 F9000 X52.33 Y15.83
G1 F2700 X55.11 Y13.06 E207.50271
G0 F9000 X54.54 Y13.06
G1 F2700 X52.33 Y15.27 E207.64307
G0 F9000 X52.33 Y14.70
G1 F2700 X53.97 Y13.06 E207.74750
G0 F9000 X53.41 Y13.06
G1 F2700 X52.33 Y14.14 E207.81601
G0 F9000 X52.33 Y13.57
G1 F2700 X52.84 Y13.06 E207.84862
G0 F9000 X54.56 Y18.70
G1 F2700 X60.20 Y13.06 E208.20657
G0 F9000 X60.76 Y13.06
G1 F2700 X55.13 Y18.70 E208.56452
G0 F9000 X55.69 Y18.70
G1 F2700 X61.33 Y13.06 E208.92247
G0 F9000 X61.89 Y13.06
G1 F2700 X56.26 Y18.70 E209.28042
G0 F9000 X56.82 Y18.70
G1 F2700 X62.46 Y13.06 E209.63836
G0 F9000 X63.02 Y13.06
G1 F2700 X57.39 Y18.70 E209.99631
G0 F9000 X57.95 Y18.70
G1 F2700 X63.59 Y13.06 E210.35426
G0 F9000 X64.16 Y13.06
G1 F2700 X58.52 Y18.70 E210.71221
G0 F9000 X59.09 Y18.70
G1 F2700 X64.72 Y13.06 E211.07016
G0 F9000 X65.29 Y13.06
G1 F2700 X59.65 Y18.70 E211.42811
G0 F9000 X60.22 Y18.70
G1 F2700 X65.85 Y13.06 E211.78606
G0 F9000 X66.42 Y13.06
G1 F2700 X60.78 Y18.70 E212.14401
G0 F9000 X61.35 Y18.70
G1 F2700 X66.98 Y13.06 E212.50195
G0 F9000 X67.55 Y13.06
G1 F2700 X61.91 Y18.70 E212.85990
G0 F9000 X62.48 Y18.70
G1 F2700 X68.12 Y13.06 E213.21788
G0 F9000 X68.68 Y13.06
G1 F2700 X63.05 Y18.70 E213.57583
G0 F9000 X63.61 Y18.70
G1 F2700 X69.25 Y13.06 E213.93378
G0 F9000 X69.81 Y13.06
G1 F2700 X64.18 Y18.70 E214.29173
G0 F9000 X64.74 Y18.70
G1 F2700 X70.38 Y13.06 E214.64968
G0 F9000 X70.94 Y13.06
G1 F2700 X65.31 Y18.70 E215.00763
G0 F9000 X65.87 Y18.70
G1 F2700 X71.51 Y13.06 E215.36558
G0 F9000 X72.08 Y13.06
G1 F2700 X66.44 Y18.70 E215.72352
G0 F9000 X67.00 Y18.70
G1 F2700 X72.64 Y13.06 E216.08147
G0 F9000 X73.21 Y13.06
G1 F2700 X67.57 Y18.70 E216.43942
G0 F9000 X68.14 Y18.70
G1 F2700 X73.77 Y13.06 E216.79737
G0 F9000 X74.34 Y13.06
G1 F2700 X68.70 Y18.70 E217.15532
G0 F9000 X69.27 Y18.70
G1 F2700 X74.91 Y13.06 E217.51327
G0 F9000 X75.47 Y13.06
G1 F2700 X69.83 Y18.70 E217.87122
G0 F9000 X70.40 Y18.70
G1 F2700 X76.04 Y13.06 E218.22917
G0 F9000 X76.60 Y13.06
G1 F2700 X70.97 Y18.70 E218.58711
G0 F9000 X71.53 Y18.70
G1 F2700 X77.17 Y13.06 E218.94506
G0 F9000 X77.73 Y13.06
G1 F2700 X72.10 Y18.70 E219.30301
G0 F9000 X72.66 Y18.70
G1 F2700 X78.30 Y13.06 E219.66096
G0 F9000 X78.45 Y13.47
G1 F2700 X73.23 Y18.70 E219.99259
G0 F9000 X73.79 Y18.70
G1 F2700 X78.45 Y14.04 E220.28831
G0 F9000 X78.45 Y14.60
G1 F2700 X74.36 Y18.70 E220.54809
G0 F9000 X74.92 Y18.70
G1 F2700 X78.45 Y15.17 E220.77192
G0 F9000 X78.45 Y15.73
G1 F2700 X75.49 Y18.70 E220.95988
G0 F9000 X76.06 Y18.70
G1 F2700 X78.45 Y16.30 E221.11190
G0 F9000 X78.45 Y16.87
G1 F2700 X76.62 Y18.70 E221.22798
G0 F9000 X77.19 Y18.70
G1 F2700 X78.45 Y17.43 E221.30815
G0 F9000 X78.45 Y18.00
G1 F2700 X77.75 Y18.70 E221.35241
G0 F9000 X78.32 Y18.70
G1 F2700 X78.45 Y18.56 E221.36072
;LAYER:4
G0 F9000 X78.59 Y18.84 Z1.50
;TYPE:WALL-INNER
G1 F3000 X53.59 Y18.84 E222.48325
G1 X53.59 Y36.84 E223.29148
G1 X45.19 Y36.84 E223.66865
G1 X45.19 Y27.77 E224.07563
G1 X52.19 Y24.44 E224.42379
G1 X52.19 Y12.92 E224.94096
G1 X78.59 Y12.92 E226.12635
G1 X78.59 Y18.84 E226.39203
G0 F9000 X78.99 Y19.24
G1 F3000 X53.99 Y19.24 E227.51456
G1 X53.99 Y37.24 E228.32278
G1 X44.79 Y37.24 E228.73587
G1 X44.79 Y27.52 E229.17213
G1 X51.79 Y24.18 E229.52029
G1 X51.79 Y12.52 E230.04411
G1 X78.99 Y12.52 E231.26542
G1 X78.99 Y19.24 E231.56702
G0 F9000 X79.39 Y19.64
G1 F3000 X54.39 Y19.64 E232.68955
G1 X54.39 Y37.64 E233.49777
G1 X44.39 Y37.64 E233.94678
G1 X44.39 Y27.27 E234.41236
G1 X51.39 Y23.93 E234.76052
G1 X51.39 Y12.12 E235.29094
G1 X79.39 Y12.12 E236.54817
G1 X79.39 Y19.64 E236.88569
G0 F9000 X79.79 Y20.04
G1 F3000 X54.79 Y20.04 E238.00822
G1 X54.79 Y38.04 E238.81644
G1 X43.99 Y38.04 E239.30138
G1 X43.99 Y27.02 E239.79623
G1 X50.99 Y23.68 E240.14439
G1 X50.99 Y11.72 E240.68145
G1 X79.79 Y11.72 E241.97461
G1 X79.79 Y20.04 E242.34805
G0 F9000 X80.19 Y20.44
;TYPE:WALL-OUTER
G1 F3000 X55.19 Y20.44 E243.47058
G1 X55.19 Y38.44 E244.27880
G1 X43.59 Y38.44 E244.79965
G1 X43.59 Y26.76 E245.32379
G1 X50.59 Y23.43 E245.67196
G1 X50.59 Y11.32 E246.21563
G1 X80.19 Y11.32 E247.54470
G1 X80.19 Y20.44 E247.95406
G0 F9000 X79.89 Y20.23
G0 X77.47 Y18.70
;TYPE:FILL
G1 F3000 X78.45 Y17.72 E248.01629
G0 F9000 X78.45 Y16.23
G1 F3000 X75.28 Y13.06 E248.21737
G0 F9000 X71.79 Y13.06
G1 F3000 X66.16 Y18.70 E248.57532
G0 F9000 X69.61 Y18.70
G1 F3000 X63.97 Y13.06 E248.93326
G0 F9000 X60.48 Y13.06
G1 F3000 X54.84 Y18.70 E249.29121
G0 F9000 X53.45 Y20.09
G1 F3000 X52.33 Y21.21 E249.36233
G0 F9000 X52.33 Y24.05
G1 F3000 X53.45 Y25.16 E249.43345
G0 F9000 X53.45 Y31.40
G1 F3000 X48.16 Y36.70 E249.76962
G0 F9000 X53.45 Y36.48
G1 F3000 X45.33 Y28.36 E250.28527
G0 F9000 X45.33 Y28.21
G1 F3000 X45.99 Y27.54 E250.32750
G0 F9000 X54.83 Y21.19
G0 X54.85 Y20.09
G0 X58.29 Y18.70
G1 F3000 X52.66 Y13.06 E250.68545
;LAYER:5
G0 F9000 X52.19 Y12.92 Z1.80
;TYPE:WALL-INNER
G1 F3000 X78.59 Y12.92 E251.87084
G1 X78.59 Y18.84 E252.13652
G1 X53.59 Y18.84 E253.25905
G1 X53.59 Y36.84 E254.06727
G1 X45.19 Y36.84 E254.44444
G1 X45.19 Y27.77 E254.85142
G1 X52.19 Y24.44 E255.19958
G1 X52.19 Y12.92 E255.71675
G0 F9000 X51.79 Y12.52
G1 F3000 X78.99 Y12.52 E256.93807
G1 X78.99 Y19.24 E257.23967
G1 X53.99 Y19.24 E258.36220
G1 X53.99 Y37.24 E259.17042
G1 X44.79 Y37.24 E259.58351
G1 X44.79 Y27.52 E260.01977
G1 X51.79 Y24.18 E260.36793
G1 X51.79 Y12.52 E260.89174
G0 F9000 X51.39 Y12.12
G1 F3000 X79.39 Y12.12 E262.14898
G1 X79.39 Y19.64 E262.48650
G1 X54.39 Y19.64 E263.60903
G1 X54.39 Y37.64 E264.41725
G1 X44.39 Y37.64 E264.86626
G1 X44.39 Y27.27 E265.33184
G1 X51.39 Y23.93 E265.68000
G1 X51.39 Y12.12 E266.21042
G0 F9000 X50.99 Y11.72
G1 F3000 X79.79 Y11.72 E267.50357
G1 X79.79 Y20.04 E267.87701
G1 X54.79 Y20.04 E268.99954
G1 X54.79 Y38.04 E269.80776
G1 X43.99 Y38.04 E270.29270
G1 X43.99 Y27.02 E270.78755
G1 X50.99 Y23.68 E271.13571
G1 X50.99 Y11.72 E271.67277
G0 F9000 X50.59 Y11.32
;TYPE:WALL-OUTER
G1 F3000 X80.19 Y11.32 E273.00185
G1 X80.19 Y20.44 E273.41121
G1 X55.19 Y20.44 E274.53374
G1 X55.19 Y38.44 E275.34196
G1 X43.59 Y38.44 E275.86282
G1 X43.59 Y26.76 E276.38695
G1 X50.59 Y23.43 E276.73512
G1 X50.59 Y11.32 E277.27879
G0 F9000 X50.89 Y11.53
G0 X52.66 Y13.06
;TYPE:FILL
G1 F3000 X58.29 Y18.70 E277.63674
G0 F9000 X54.84 Y18.70
G1 F3000 X60.48 Y13.06 E277.99469
G0 F9000 X63.97 Y13.06
G1 F3000 X69.61 Y18.70 E278.35263
G0 F9000 X66.16 Y18.70
G1 F3000 X71.79 Y13.06 E278.71058
G0 F9000 X75.28 Y13.06
G1 F3000 X78.45 Y16.23 E278.91165
G0 F9000 X78.45 Y17.72
G1 F3000 X77.47 Y18.70 E278.97388
G0 F9000 X53.45 Y20.09
G1 F3000 X52.33 Y21.21 E279.04500
G0 F9000 X52.33 Y24.05
G1 F3000 X53.45 Y25.16 E279.11612
G0 F9000 X53.45 Y31.40
G1 F3000 X48.16 Y36.70 E279.45229
G0 F9000 X53.45 Y36.48
G1 F3000 X45.33 Y28.36 E279.96794
G0 F9000 X45.33 Y28.21
G1 F3000 X45.99 Y27.54 E280.01017
;LAYER:6
G0 F9000 X45.19 Y27.77 Z2.10
;TYPE:WALL-INNER
G1 F3000 X52.19 Y24.44 E280.35833
G1 X52.19 Y12.92 E280.87550
G1 X78.59 Y12.92 E282.06089
G1 X78.59 Y18.84 E282.32657
G1 X53.59 Y18.84 E283.44910
G1 X53.59 Y36.84 E284.25732
G1 X45.19 Y36.84 E284.63449
G1 X45.19 Y27.77 E285.04148
G0 F9000 X44.79 Y27.52
G1 F3000 X51.79 Y24.18 E285.38963
G1 X51.79 Y12.52 E285.91345
G1 X78.99 Y12.52 E287.13476
G1 X78.99 Y19.24 E287.43636
G1 X53.99 Y19.24 E288.55889
G1 X53.99 Y37.24 E289.36711
G1 X44.79 Y37.24 E289.78021
G1 X44.79 Y27.52 E290.21647
G0 F9000 X44.39 Y27.27
G1 F3000 X51.39 Y23.93 E290.56462
G1 X51.39 Y12.12 E291.09504
G1 X79.39 Y12.12 E292.35227
G1 X79.39 Y19.64 E292.68980
G1 X54.39 Y19.64 E293.81233
G1 X54.39 Y37.64 E294.62055
G1 X44.39 Y37.64 E295.06956
G1 X44.39 Y27.27 E295.53514
G0 F9000 X43.99 Y27.02
G1 F3000 X50.99 Y23.68 E295.88330
G1 X50.99 Y11.72 E296.42036
G1 X79.79 Y11.72 E297.71351
G1 X79.79 Y20.04 E298.08696
G1 X54.79 Y20.04 E299.20949
G1 X54.79 Y38.04 E300.01771
G1 X43.99 Y38.04 E300.50264
G1 X43.99 Y27.02 E300.99750
G0 F9000 X43.59 Y26.76
;TYPE:WALL-OUTER
G1 F3000 X50.59 Y23.43 E301.34567
G1 X50.59 Y11.32 E301.88934
G1 X80.19 Y11.32 E303.21841
G1 X80.19 Y20.44 E303.62777
G1 X55.19 Y20.44 E304.75030
G1 X55.19 Y38.44 E305.55853
G1 X43.59 Y38.44 E306.07938
G1 X43.59 Y26.76 E306.60351
G0 F9000 X43.89 Y26.90
G0 X45.33 Y28.21
;TYPE:FILL
G1 F3000 X45.99 Y27.54 E306.64574
G0 F9000 X45.33 Y28.36
G1 F3000 X53.45 Y36.48 E307.16139
G0 F9000 X53.45 Y31.40
G1 F3000 X48.16 Y36.70 E307.49756
G0 F9000 X53.45 Y25.16
G1 F3000 X52.33 Y24.05 E307.56868
G0 F9000 X52.33 Y21.21
G1 F3000 X53.45 Y20.09 E307.63980
G0 F9000 X54.84 Y18.70
G1 F3000 X60.48 Y13.06 E307.99775
G0 F9000 X63.97 Y13.06
G1 F3000 X69.61 Y18.70 E308.35569
G0 F9000 X66.16 Y18.70
G1 F3000 X71.79 Y13.06 E308.71364
G0 F9000 X75.28 Y13.06
G1 F3000 X78.45 Y16.23 E308.91472
G0 F9000 X78.45 Y17.72
G1 F3000 X77.47 Y18.70 E308.97695
G0 F9000 X58.29 Y18.70
G1 F3000 X52.66 Y13.06 E309.33489
;LAYER:7
G0 F9000 X52.19 Y12.92 Z2.40
;TYPE:WALL-INNER
G1 F3000 X78.59 Y12.92 E310.52029
G1 X78.59 Y18.84 E310.78597
G1 X53.59 Y18.84 E311.90849
G1 X53.59 Y36.84 E312.71672
G1 X45.19 Y36.84 E313.09389
G1 X45.19 Y27.77 E313.50087
G1 X52.19 Y24.44 E313.84903
G1 X52.19 Y12.92 E314.36620
G0 F9000 X51.79 Y12.52
G1 F3000 X78.99 Y12.52 E315.58751
G1 X78.99 Y19.24 E315.88911
G1 X53.99 Y19.24 E317.01164
G1 X53.99 Y37.24 E317.81986
G1 X44.79 Y37.24 E318.23295
G1 X44.79 Y27.52 E318.66921
G1 X51.79 Y24.18 E319.01737
G1 X51.79 Y12.52 E319.54119
G0 F9000 X51.39 Y12.12
G1 F3000 X79.39 Y12.12 E320.79842
G1 X79.39 Y19.64 E321.13594
G1 X54.39 Y19.64 E322.25847
G1 X54.39 Y37.64 E323.06669
G1 X44.39 Y37.64 E323.51571
G1 X44.39 Y27.27 E323.98129
G1 X51.39 Y23.93 E324.32944
G1 X51.39 Y12.12 E324.85986
G0 F9000 X50.99 Y11.72
G1 F3000 X79.79 Y11.72 E326.15302
G1 X79.79 Y20.04 E326.52646
G1 X54.79 Y20.04 E327.64899
G1 X54.79 Y38.04 E328.45721
G1 X43.99 Y38.04 E328.94214
G1 X43.99 Y27.02 E329.43700
G1 X50.99 Y23.68 E329.78516
G1 X50.99 Y11.72 E330.32222
G0 F9000 X50.59 Y11.32
;TYPE:WALL-OUTER
G1 F3000 X80.19 Y11.32 E331.65129
G1 X80.19 Y20.44 E332.06066
G1 X55.19 Y20.44 E333.18319
G1 X55.19 Y38.44 E333.99141
G1 X43.59 Y38.44 E334.51226
G1 X43.59 Y26.76 E335.03639
G1 X50.59 Y23.43 E335.38457
G1 X50.59 Y11.32 E335.92823
G0 F9000 X50.89 Y11.53
G0 X52.66 Y13.06
;TYPE:FILL
G1 F3000 X58.29 Y18.70 E336.28618
G0 F9000 X54.84 Y18.70
G1 F3000 X60.48 Y13.06 E336.64413
G0 F9000 X63.97 Y13.06
G1 F3000 X69.61 Y18.70 E337.00208
G0 F9000 X66.16 Y18.70
G1 F3000 X71.79 Y13.06 E337.36003
G0 F9000 X75.28 Y13.06
G1 F3000 X78.45 Y16.23 E337.56110
G0 F9000 X78.45 Y17.72
G1 F3000 X77.47 Y18.70 E337.62333
G0 F9000 X53.45 Y20.09
G1 F3000 X52.33 Y21.21 E337.69445
G0 F9000 X52.33 Y24.05
G1 F3000 X53.45 Y25.16 E337.76557
G0 F9000 X53.45 Y31.40
G1 F3000 X48.16 Y36.70 E338.10174
G0 F9000 X53.45 Y36.48
G1 F3000 X45.33 Y28.36 E338.61739
G0 F9000 X45.33 Y28.21
G1 F3000 X45.99 Y27.54 E338.65962
;LAYER:8
G0 F9000 X45.19 Y27.77 Z2.70
;TYPE:WALL-INNER
G1 F3000 X52.19 Y24.44 E339.00777
G1 X52.19 Y12.92 E339.52495
G1 X78.59 Y12.92 E340.71034
G1 X78.59 Y18.84 E340.97602
G1 X53.59 Y18.84 E342.09855
G1 X53.59 Y36.84 E342.90677
G1 X45.19 Y36.84 E343.28394
G1 X45.19 Y27.77 E343.69092
G0 F9000 X44.79 Y27.52
G1 F3000 X51.79 Y24.18 E344.03908
G1 X51.79 Y12.52 E344.56290
G1 X78.99 Y12.52 E345.78421
G1 X78.99 Y19.24 E346.08581
G1 X53.99 Y19.24 E347.20834
G1 X53.99 Y37.24 E348.01656
G1 X44.79 Y37.24 E348.42965
G1 X44.79 Y27.52 E348.86591
G0 F9000 X44.39 Y27.27
G1 F3000 X51.39 Y23.93 E349.21407
G1 X51.39 Y12.12 E349.74449
G1 X79.39 Y12.12 E351.00172
G1 X79.39 Y19.64 E351.33924
G1 X54.39 Y19.64 E352.46177
G1 X54.39 Y37.64 E353.26999
G1 X44.39 Y37.64 E353.71900
G1 X44.39 Y27.27 E354.18458
G0 F9000 X43.99 Y27.02
G1 F3000 X50.99 Y23.68 E354.53274
G1 X50.99 Y11.72 E355.06981
G1 X79.79 Y11.72 E356.36296
G1 X79.79 Y20.04 E356.73640
G1 X54.79 Y20.04 E357.85893
G1 X54.79 Y38.04 E358.66715
G1 X43.99 Y38.04 E359.15209
G1 X43.99 Y27.02 E359.64694
G0 F9000 X43.59 Y26.76
;TYPE:WALL-OUTER
G1 F3000 X50.59 Y23.43 E359.99512
G1 X50.59 Y11.32 E360.53878
G1 X80.19 Y11.32 E361.86786
G1 X80.19 Y20.44 E362.27722
G1 X55.19 Y20.44 E363.39975
G1 X55.19 Y38.44 E364.20797
G1 X43.59 Y38.44 E364.72883
G1 X43.59 Y26.76 E365.25296
G0 F9000 X43.89 Y26.90
G0 X45.33 Y28.21
;TYPE:FILL
G1 F3000 X45.99 Y27.54 E365.29518
G0 F9000 X45.33 Y28.36
G1 F3000 X53.45 Y36.48 E365.81083
G0 F9000 X53.45 Y31.40
G1 F3000 X48.16 Y36.70 E366.14700
G0 F9000 X53.45 Y25.16
G1 F3000 X52.33 Y24.05 E366.21812
G0 F9000 X52.33 Y21.21
G1 F3000 X53.45 Y20.09 E366.28924
G0 F9000 X54.84 Y18.70
G1 F3000 X60.48 Y13.06 E366.64719
G0 F9000 X63.97 Y13.06
G1 F3000 X69.61 Y18.70 E367.00514
G0 F9000 X66.16 Y18.70
G1 F3000 X71.79 Y13.06 E367.36309
G0 F9000 X75.28 Y13.06
G1 F3000 X78.45 Y16.23 E367.56416
G0 F9000 X78.45 Y17.72
G1 F3000 X77.47 Y18.70 E367.62639
G0 F9000 X58.29 Y18.70
G1 F3000 X52.66 Y13.06 E367.98434
;LAYER:9
G0 F9000 X52.19 Y12.92 Z3.00
;TYPE:WALL-INNER
G1 F3000 X78.59 Y12.92 E369.16973
G1 X78.59 Y18.84 E369.43541
G1 X53.59 Y18.84 E370.55794
G1 X53.59 Y36.84 E371.36616
G1 X45.19 Y36.84 E371.74333
G1 X45.19 Y27.77 E372.15032
G1 X52.19 Y24.44 E372.49847
G1 X52.19 Y12.92 E373.01565
G0 F9000 X51.79 Y12.52
G1 F3000 X78.99 Y12.52 E374.23696
G1 X78.99 Y19.24 E374.53856
G1 X53.99 Y19.24 E375.66109
G1 X53.99 Y37.24 E376.46931
G1 X44.79 Y37.24 E376.88240
G1 X44.79 Y27.52 E377.31866
G1 X51.79 Y24.18 E377.66682
G1 X51.79 Y12.52 E378.19063
G0 F9000 X51.39 Y12.12
G1 F3000 X79.39 Y12.12 E379.44787
G1 X79.39 Y19.64 E379.78539
G1 X54.39 Y19.64 E380.90792
G1 X54.39 Y37.64 E381.71614
G1 X44.39 Y37.64 E382.16515
G1 X44.39 Y27.27 E382.63073
G1 X51.39 Y23.93 E382.97889
G1 X51.39 Y12.12 E383.50931
G0 F9000 X50.99 Y11.72
G1 F3000 X79.79 Y11.72 E384.80246
G1 X79.79 Y20.04 E385.17591
G1 X54.79 Y20.04 E386.29843
G1 X54.79 Y38.04 E387.10666
G1 X43.99 Y38.04 E387.59159
G1 X43.99 Y27.02 E388.08644
G1 X50.99 Y23.68 E388.43460
G1 X50.99 Y11.72 E388.97166
G0 F9000 X50.59 Y11.32
;TYPE:WALL-OUTER
G1 F3000 X80.19 Y11.32 E390.30074
G1 X80.19 Y20.44 E390.71010
G1 X55.19 Y20.44 E391.83263
G1 X55.19 Y38.44 E392.64085
G1 X43.59 Y38.44 E393.16171
G1 X43.59 Y26.76 E393.68584
G1 X50.59 Y23.43 E394.03402
G1 X50.59 Y11.32 E394.57768
G0 F9000 X50.89 Y11.53
G0 X52.66 Y13.06
;TYPE:FILL
G1 F3000 X58.29 Y18.70 E394.93563
G0 F9000 X54.84 Y18.70
G1 F3000 X60.48 Y13.06 E395.29358
G0 F9000 X63.97 Y13.06
G1 F3000 X69.61 Y18.70 E395.65153
G0 F9000 X66.16 Y18.70
G1 F3000 X71.79 Y13.06 E396.00947
G0 F9000 X75.28 Y13.06
G1 F3000 X78.45 Y16.23 E396.21055
G0 F9000 X78.45 Y17.72
G1 F3000 X77.47 Y18.70 E396.27278
G0 F9000 X53.45 Y20.09
G1 F3000 X52.33 Y21.21 E396.34390
G0 F9000 X52.33 Y24.05
G1 F3000 X53.45 Y25.16 E396.41502
G0 F9000 X52.25 Y24.97
G1 F3000 X45.33 Y31.89 E396.85444
G0 F9000 X45.33 Y32.45
G1 F3000 X52.25 Y25.53 E397.29385
G0 F9000 X52.25 Y26.10
G1 F3000 X45.33 Y33.02 E397.73324
G0 F9000 X45.33 Y33.58
G1 F3000 X52.25 Y26.66 E398.17266
G0 F9000 X52.25 Y27.23
G1 F3000 X45.33 Y34.15 E398.61208
G0 F9000 X45.33 Y34.71
G1 F3000 X52.25 Y27.79 E399.05147
G0 F9000 X52.25 Y28.36
G1 F3000 X45.33 Y35.28 E399.49089
G0 F9000 X45.33 Y35.84
G1 F3000 X52.25 Y28.93 E399.93031
G0 F9000 X52.25 Y29.49
G1 F3000 X45.33 Y36.41 E400.36972
G0 F9000 X45.61 Y36.70
G1 F3000 X52.25 Y30.06 E400.79133
G0 F9000 X52.25 Y30.62
G1 F3000 X46.18 Y36.70 E401.17703
G0 F9000 X46.74 Y36.70
G1 F3000 X52.25 Y31.19 E401.52679
G0 F9000 X52.25 Y31.75
G1 F3000 X47.31 Y36.70 E401.84060
G0 F9000 X47.87 Y36.70
G1 F3000 X52.25 Y32.32 E402.11854
G0 F9000 X52.25 Y32.88
G1 F3000 X48.44 Y36.70 E402.36054
G0 F9000 X49.01 Y36.70
G1 F3000 X52.25 Y33.45 E402.56660
G0 F9000 X52.25 Y34.02
G1 F3000 X49.57 Y36.70 E402.73675
G0 F9000 X50.14 Y36.70
G1 F3000 X52.25 Y34.58 E402.87098
G0 F9000 X51.73 Y34.76
G1 F3000 X53.45 Y36.48 E402.98020
G0 F9000 X52.25 Y36.28
G1 F3000 X51.83 Y36.70 E403.00668
G0 F9000 X51.27 Y36.70
G1 F3000 X52.25 Y35.71 E403.06907
G0 F9000 X52.25 Y35.15
G1 F3000 X50.70 Y36.70 E403.16737
G0 F9000 X51.73 Y33.12
G1 F3000 X53.45 Y31.40 E403.27659
G0 F9000 X50.86 Y25.23
G1 F3000 X45.33 Y30.75 E403.62768
G0 F9000 X45.33 Y31.32
G1 F3000 X51.94 Y24.71 E404.04735
G0 F9000 X49.78 Y25.74
G1 F3000 X45.33 Y30.19 E404.32980
G0 F9000 X45.33 Y29.62
G1 F3000 X48.70 Y26.25 E404.54360
G0 F9000 X47.62 Y26.77
G1 F3000 X45.33 Y29.06 E404.68876
G0 F9000 X45.33 Y28.49
G1 F3000 X46.54 Y27.29 E404.76534
G0 F9000 X45.45 Y27.80
G1 F3000 X45.33 Y27.93 E404.77322
;LAYER:10
G0 F9000 X45.19 Y27.77 Z3.30
;TYPE:WALL-INNER
G1 F3000 X52.19 Y24.44 E405.12137
G1 X52.19 Y12.92 E405.63855
G1 X78.59 Y12.92 E406.82394
G1 X78.59 Y18.84 E407.08962
G1 X53.59 Y18.84 E408.21215
G1 X53.59 Y36.84 E409.02037
G1 X45.19 Y36.84 E409.39754
G1 X45.19 Y27.77 E409.80452
G0 F9000 X44.79 Y27.52
G1 F3000 X51.79 Y24.18 E410.15268
G1 X51.79 Y12.52 E410.67650
G1 X78.99 Y12.52 E411.89781
G1 X78.99 Y19.24 E412.19941
G1 X53.99 Y19.24 E413.32194
G1 X53.99 Y37.24 E414.13016
G1 X44.79 Y37.24 E414.54325
G1 X44.79 Y27.52 E414.97951
G0 F9000 X44.39 Y27.27
G1 F3000 X51.39 Y23.93 E415.32767
G1 X51.39 Y12.12 E415.85809
G1 X79.39 Y12.12 E417.11532
G1 X79.39 Y19.64 E417.45284
G1 X54.39 Y19.64 E418.57537
G1 X54.39 Y37.64 E419.38359
G1 X44.39 Y37.64 E419.83261
G1 X44.39 Y27.27 E420.29819
G0 F9000 X43.99 Y27.02
G1 F3000 X50.99 Y23.68 E420.64634
G1 X50.99 Y11.72 E421.18341
G1 X79.79 Y11.72 E422.47656
G1 X79.79 Y20.04 E422.85000
G1 X54.79 Y20.04 E423.97253
G1 X54.79 Y38.04 E424.78075
G1 X43.99 Y38.04 E425.26569
G1 X43.99 Y27.02 E425.76054
G0 F9000 X43.59 Y26.76
;TYPE:WALL-OUTER
G1 F3000 X50.59 Y23.43 E426.10872
G1 X50.59 Y11.32 E426.65238
G1 X80.19 Y11.32 E427.98146
G1 X80.19 Y20.44 E428.39082
G1 X55.19 Y20.44 E429.51335
G1 X55.19 Y38.44 E430.32157
G1 X43.59 Y38.44 E430.84243
G1 X43.59 Y26.76 E431.36656
G0 F9000 X43.89 Y26.90
G0 X45.33 Y28.08
;TYPE:FILL
G1 F3000 X52.25 Y35.00 E431.80604
G0 F9000 X52.25 Y35.56
G1 F3000 X45.33 Y28.64 E432.24552
G0 F9000 X45.33 Y29.21
G1 F3000 X52.25 Y36.13 E432.68501
G0 F9000 X52.25 Y36.69
G1 F3000 X45.33 Y29.77 E433.12449
G0 F9000 X45.33 Y30.34
G1 F3000 X51.69 Y36.70 E433.52816
G0 F9000 X51.12 Y36.70
G1 F3000 X45.33 Y30.90 E433.89592
G0 F9000 X45.33 Y31.47
G1 F3000 X50.56 Y36.70 E434.22777
G0 F9000 X49.99 Y36.70
G1 F3000 X45.33 Y32.04 E434.52368
G0 F9000 X45.33 Y32.60
G1 F3000 X49.42 Y36.70 E434.78368
G0 F9000 X48.86 Y36.70
G1 F3000 X45.33 Y33.17 E435.00777
G0 F9000 X45.33 Y33.73
G1 F3000 X48.29 Y36.70 E435.19592
G0 F9000 X47.73 Y36.70
G1 F3000 X45.33 Y34.30 E435.34816
G0 F9000 X45.33 Y34.86
G1 F3000 X47.16 Y36.70 E435.46449
G0 F9000 X46.59 Y36.70
G1 F3000 X45.33 Y35.43 E435.54488
G0 F9000 X45.33 Y35.99
G1 F3000 X46.03 Y36.70 E435.58936
G0 F9000 X45.46 Y36.70
G1 F3000 X45.33 Y36.56 E435.59793
G0 F9000 X51.73 Y34.76
G1 F3000 X53.45 Y36.48 E435.70715
G0 F9000 X52.25 Y34.43
G1 F3000 X45.57 Y27.75 E436.13152
G0 F9000 X45.95 Y27.57
G1 F3000 X52.25 Y33.87 E436.53160
G0 F9000 X52.25 Y33.30
G1 F3000 X46.33 Y27.38 E436.90733
G0 F9000 X46.72 Y27.20
G1 F3000 X52.25 Y32.73 E437.25874
G0 F9000 X52.25 Y32.17
G1 F3000 X47.10 Y27.02 E437.58586
G0 F9000 X47.48 Y26.84
G1 F3000 X52.25 Y31.60 E437.88863
G0 F9000 X52.25 Y31.04
G1 F3000 X47.87 Y26.65 E438.16704
G0 F9000 X48.25 Y26.47
G1 F3000 X52.25 Y30.47 E438.42114
G0 F9000 X52.25 Y29.91
G1 F3000 X48.63 Y26.29 E438.65094
G0 F9000 X49.02 Y26.10
G1 F3000 X52.25 Y29.34 E438.85640
G0 F9000 X52.25 Y28.77
G1 F3000 X49.40 Y25.92 E439.03753
G0 F9000 X49.78 Y25.74
G1 F3000 X52.25 Y28.21 E439.19431
G0 F9000 X52.25 Y27.64
G1 F3000 X50.16 Y25.56 E439.32680
G0 F9000 X50.55 Y25.37
G1 F3000 X52.25 Y27.08 E439.43495
G0 F9000 X52.25 Y26.51
G1 F3000 X50.93 Y25.19 E439.51876
G0 F9000 X51.31 Y25.01
G1 F3000 X52.25 Y25.95 E439.57823
G0 F9000 X52.25 Y25.38
G1 F3000 X51.89 Y24.73 E439.61335
G1 X52.25 Y24.82 E439.63000
G0 F9000 X52.33 Y24.05
G1 F3000 X53.45 Y25.16 E439.70112
G0 F9000 X52.33 Y21.21
G1 F3000 X53.45 Y20.09 E439.77224
G0 F9000 X54.84 Y18.70
G1 F3000 X60.48 Y13.06 E440.13019
G0 F9000 X63.97 Y13.06
G1 F3000 X69.61 Y18.70 E440.48814
G0 F9000 X66.16 Y18.70
G1 F3000 X71.79 Y13.06 E440.84609
G0 F9000 X75.28 Y13.06
G1 F3000 X78.45 Y16.23 E441.04716
G0 F9000 X78.45 Y17.72
G1 F3000 X77.47 Y18.70 E441.10939
G0 F9000 X58.29 Y18.70
G1 F3000 X52.66 Y13.06 E441.46734
G0 F9000 X53.45 Y31.40
G1 F3000 X51.73 Y33.12 E441.57656
;LAYER:11
G0 F9000 X53.59 Y36.84 Z3.60
;TYPE:WALL-INNER
G1 F3000 X45.19 Y36.84 E441.95373
G1 X45.19 Y27.77 E442.36071
G1 X52.19 Y24.44 E442.70887
G1 X52.19 Y12.92 E443.22604
G1 X78.59 Y12.92 E444.41143
G1 X78.59 Y18.84 E444.67711
G1 X53.59 Y18.84 E445.79964
G1 X53.59 Y36.84 E446.60786
G0 F9000 X53.99 Y37.24
G1 F3000 X44.79 Y37.24 E447.02095
G1 X44.79 Y27.52 E447.45721
G1 X51.79 Y24.18 E447.80537
G1 X51.79 Y12.52 E448.32919
G1 X78.99 Y12.52 E449.55050
G1 X78.99 Y19.24 E449.85210
G1 X53.99 Y19.24 E450.97463
G1 X53.99 Y37.24 E451.78285
G0 F9000 X54.39 Y37.64
G1 F3000 X44.39 Y37.64 E452.23186
G1 X44.39 Y27.27 E452.69744
G1 X51.39 Y23.93 E453.04560
G1 X51.39 Y12.12 E453.57602
G1 X79.39 Y12.12 E454.83325
G1 X79.39 Y19.64 E455.17077
G1 X54.39 Y19.64 E456.29330
G1 X54.39 Y37.64 E457.10152
G0 F9000 X54.79 Y38.04
G1 F3000 X43.99 Y38.04 E457.58646
G1 X43.99 Y27.02 E458.08131
G1 X50.99 Y23.68 E458.42947
G1 X50.99 Y11.72 E458.96653
G1 X79.79 Y11.72 E460.25969
G1 X79.79 Y20.04 E460.63313
G1 X54.79 Y20.04 E461.75566
G1 X54.79 Y38.04 E462.56388
G0 F9000 X55.19 Y38.44
;TYPE:WALL-OUTER
G1 F3000 X43.59 Y38.44 E463.08473
G1 X43.59 Y26.76 E463.60887
G1 X50.59 Y23.43 E463.95704
G1 X50.59 Y11.32 E464.50071
G1 X80.19 Y11.32 E465.82978
G1 X80.19 Y20.44 E466.23915
G1 X55.19 Y20.44 E467.36167
G1 X55.19 Y38.44 E468.16990
G0 F9000 X54.89 Y38.23
G0 X53.45 Y36.48
;TYPE:FILL
G1 F3000 X51.73 Y34.76 E468.27912
G0 F9000 X52.25 Y34.58
G1 F3000 X50.14 Y36.70 E468.41335
G0 F9000 X49.57 Y36.70
G1 F3000 X52.25 Y34.02 E468.58350
G0 F9000 X52.25 Y33.45
G1 F3000 X49.01 Y36.70 E468.78956
G0 F9000 X48.44 Y36.70
G1 F3000 X52.25 Y32.88 E469.03156
G0 F9000 X52.25 Y32.32
G1 F3000 X47.87 Y36.70 E469.30950
G0 F9000 X47.31 Y36.70
G1 F3000 X52.25 Y31.75 E469.62331
G0 F9000 X52.25 Y31.19
G1 F3000 X46.74 Y36.70 E469.97307
G0 F9000 X46.18 Y36.70
G1 F3000 X52.25 Y30.62 E470.35877
G0 F9000 X52.25 Y30.06
G1 F3000 X45.61 Y36.70 E470.78038
G0 F9000 X45.33 Y36.41
G1 F3000 X52.25 Y29.49 E471.21979
G0 F9000 X52.25 Y28.93
G1 F3000 X45.33 Y35.84 E471.65921
G0 F9000 X45.33 Y35.28
G1 F3000 X52.25 Y28.36 E472.09863
G0 F9000 X52.25 Y27.79
G1 F3000 X45.33 Y34.71 E472.53802
G0 F9000 X45.33 Y34.15
G1 F3000 X52.25 Y27.23 E472.97744
G0 F9000 X52.25 Y26.66
G1 F3000 X45.33 Y33.58 E473.41686
G0 F9000 X45.33 Y33.02
G1 F3000 X52.25 Y26.10 E473.85624
G0 F9000 X52.25 Y25.53
G1 F3000 X45.33 Y32.45 E474.29566
G0 F9000 X45.33 Y31.89
G1 F3000 X52.25 Y24.97 E474.73508
G0 F9000 X51.94 Y24.71
G1 F3000 X45.33 Y31.32 E475.15475
G0 F9000 X45.33 Y30.75
G1 F3000 X50.86 Y25.23 E475.50584
G0 F9000 X49.78 Y25.74
G1 F3000 X45.33 Y30.19 E475.78829
G0 F9000 X45.33 Y29.62
G1 F3000 X48.70 Y26.25 E476.00210
G0 F9000 X47.62 Y26.77
G1 F3000 X45.33 Y29.06 E476.14726
G0 F9000 X45.33 Y28.49
G1 F3000 X46.54 Y27.29 E476.22384
G0 F9000 X45.45 Y27.80
G1 F3000 X45.33 Y27.93 E476.23171
G0 F9000 X52.33 Y24.05
G1 F3000 X53.45 Y25.16 E476.30283
G0 F9000 X52.33 Y21.21
G1 F3000 X53.45 Y20.09 E476.37395
G0 F9000 X54.84 Y18.70
G1 F3000 X60.48 Y13.06 E476.73190
G0 F9000 X63.97 Y13.06
G1 F3000 X69.61 Y18.70 E477.08985
G0 F9000 X66.16 Y18.70
G1 F3000 X71.79 Y13.06 E477.44780
G0 F9000 X75.28 Y13.06
G1 F3000 X78.45 Y16.23 E477.64887
G0 F9000 X78.45 Y17.72
G1 F3000 X77.47 Y18.70 E477.71110
G0 F9000 X58.29 Y18.70
G1 F3000 X52.66 Y13.06 E478.06905
G0 F9000 X53.45 Y31.40
G1 F3000 X51.73 Y33.12 E478.17827
G0 F9000 X52.25 Y35.15
G1 F3000 X50.70 Y36.70 E478.27657
G0 F9000 X51.27 Y36.70
G1 F3000 X52.25 Y35.71 E478.33895
G0 F9000 X52.25 Y36.28
G1 F3000 X51.83 Y36.70 E478.36543
;LAYER:12
G0 F9000 X53.59 Y36.84 Z3.90
;TYPE:WALL-INNER
G1 F3000 X45.19 Y36.84 E478.74260
G1 X45.19 Y27.77 E479.14959
G1 X52.19 Y24.44 E479.49774
G1 X52.19 Y12.92 E480.01492
G1 X78.59 Y12.92 E481.20031
G1 X78.59 Y18.84 E481.46599
G1 X53.59 Y18.84 E482.58852
G1 X53.59 Y36.84 E483.39674
G0 F9000 X53.99 Y37.24
G1 F3000 X44.79 Y37.24 E483.80983
G1 X44.79 Y27.52 E484.24609
G1 X51.79 Y24.18 E484.59425
G1 X51.79 Y12.52 E485.11806
G1 X78.99 Y12.52 E486.33938
G1 X78.99 Y19.24 E486.64098
G1 X53.99 Y19.24 E487.76351
G1 X53.99 Y37.24 E488.57173
G0 F9000 X54.39 Y37.64
G1 F3000 X44.39 Y37.64 E489.02074
G1 X44.39 Y27.27 E489.48632
G1 X51.39 Y23.93 E489.83448
G1 X51.39 Y12.12 E490.36490
G1 X79.39 Y12.12 E491.62213
G1 X79.39 Y19.64 E491.95965
G1 X54.39 Y19.64 E493.08218
G1 X54.39 Y37.64 E493.89040
G0 F9000 X54.79 Y38.04
G1 F3000 X43.99 Y38.04 E494.37533
G1 X43.99 Y27.02 E494.87019
G1 X50.99 Y23.68 E495.21835
G1 X50.99 Y11.72 E495.75541
G1 X79.79 Y11.72 E497.04856
G1 X79.79 Y20.04 E497.42201
G1 X54.79 Y20.04 E498.54454
G1 X54.79 Y38.04 E499.35276
G0 F9000 X55.19 Y38.44
;TYPE:WALL-OUTER
G1 F3000 X43.59 Y38.44 E499.87361
G1 X43.59 Y26.76 E500.39774
G1 X50.59 Y23.43 E500.74592
G1 X50.59 Y11.32 E501.28958
G1 X80.19 Y11.32 E502.61866
G1 X80.19 Y20.44 E503.02802
G1 X55.19 Y20.44 E504.15055
G1 X55.19 Y38.44 E504.95877
G0 F9000 X54.89 Y38.23
G0 X53.45 Y36.48
;TYPE:FILL
G1 F3000 X51.73 Y34.76 E505.06799
G0 F9000 X52.25 Y35.00
G1 F3000 X45.33 Y28.08 E505.50748
G0 F9000 X45.57 Y27.75
G1 F3000 X52.25 Y34.43 E505.93185
G0 F9000 X52.25 Y33.87
G1 F3000 X45.95 Y27.57 E506.33193
G0 F9000 X46.33 Y27.38
G1 F3000 X52.25 Y33.30 E506.70765
G0 F9000 X51.73 Y33.12
G1 F3000 X53.45 Y31.40 E506.81687
G0 F9000 X52.25 Y31.60
G1 F3000 X47.48 Y26.84 E507.11964
G0 F9000 X47.10 Y27.02
G1 F3000 X52.25 Y32.17 E507.44676
G0 F9000 X52.25 Y32.73
G1 F3000 X46.72 Y27.20 E507.79817
G0 F9000 X47.87 Y26.65
G1 F3000 X52.25 Y31.04 E508.07658
G0 F9000 X52.25 Y30.47
G1 F3000 X48.25 Y26.47 E508.33068
G0 F9000 X48.63 Y26.29
G1 F3000 X52.25 Y29.91 E508.56049
G0 F9000 X52.25 Y29.34
G1 F3000 X49.02 Y26.10 E508.76594
G0 F9000 X49.40 Y25.92
G1 F3000 X52.25 Y28.77 E508.94707
G0 F9000 X52.25 Y28.21
G1 F3000 X49.78 Y25.74 E509.10385
G0 F9000 X50.16 Y25.56
G1 F3000 X52.25 Y27.64 E509.23635
G0 F9000 X52.25 Y27.08
G1 F3000 X50.55 Y25.37 E509.34449
G0 F9000 X50.93 Y25.19
G1 F3000 X52.25 Y26.51 E509.42831
G0 F9000 X52.25 Y25.95
G1 F3000 X51.31 Y25.01 E509.48777
G0 F9000 X51.70 Y24.83
G1 F3000 X52.25 Y25.10 E509.52287
G1 X52.08 Y24.64 E509.54461
G0 F9000 X52.33 Y24.05
G1 F3000 X53.45 Y25.16 E509.61573
G0 F9000 X52.33 Y21.21
G1 F3000 X53.45 Y20.09 E509.68685
G0 F9000 X54.84 Y18.70
G1 F3000 X60.48 Y13.06 E510.04480
G0 F9000 X63.97 Y13.06
G1 F3000 X69.61 Y18.70 E510.40274
G0 F9000 X66.16 Y18.70
G1 F3000 X71.79 Y13.06 E510.76069
G0 F9000 X75.28 Y13.06
G1 F3000 X78.45 Y16.23 E510.96177
G0 F9000 X78.45 Y17.72
G1 F3000 X77.47 Y18.70 E511.02400
G0 F9000 X58.29 Y18.70
G1 F3000 X52.66 Y13.06 E511.38194
G0 F9000 X50.96 Y23.66
G0 X45.33 Y28.64
G1 F3000 X52.25 Y35.56 E511.82143
G0 F9000 X52.25 Y36.13
G1 F3000 X45.33 Y29.21 E512.26091
G0 F9000 X45.33 Y29.77
G1 F3000 X52.25 Y36.69 E512.70039
G0 F9000 X51.69 Y36.70
G1 F3000 X45.33 Y30.34 E513.10406
G0 F9000 X45.33 Y30.90
G1 F3000 X51.12 Y36.70 E513.47182
G0 F9000 X50.56 Y36.70
G1 F3000 X45.33 Y31.47 E513.80367
G0 F9000 X45.33 Y32.04
G1 F3000 X49.99 Y36.70 E514.09958
G0 F9000 X49.42 Y36.70
G1 F3000 X45.33 Y32.60 E514.35958
G0 F9000 X45.33 Y33.17
G1 F3000 X48.86 Y36.70 E514.58367
G0 F9000 X48.29 Y36.70
G1 F3000 X45.33 Y33.73 E514.77182
G0 F9000 X45.33 Y34.30
G1 F3000 X47.73 Y36.70 E514.92406
G0 F9000 X47.16 Y36.70
G1 F3000 X45.33 Y34.86 E515.04039
G0 F9000 X45.33 Y35.43
G1 F3000 X46.59 Y36.70 E515.12078
G0 F9000 X46.03 Y36.70
G1 F3000 X45.33 Y35.99 E515.16527
G0 F9000 X45.33 Y36.56
G1 F3000 X45.46 Y36.70 E515.17384
;LAYER:13
G1 F1200 E514.67384
G0 F9000 X52.19 Y36.84 Z4.20
;TYPE:WALL-INNER
G1 F1200 E515.17384
G1 F3000 X52.19 Y12.92 E516.24774
G1 X78.59 Y12.92 E517.43313
G1 X78.59 Y18.84 E517.69881
G1 X53.59 Y18.84 E518.82134
G1 X53.59 Y36.84 E519.62956
G1 X52.19 Y36.84 E519.69242
G0 F9000 X51.79 Y37.24
G1 F3000 X51.79 Y12.52 E520.80225
G1 X78.99 Y12.52 E522.02356
G1 X78.99 Y19.24 E522.32516
G1 X53.99 Y19.24 E523.44769
G1 X53.99 Y37.24 E524.25591
G1 X51.79 Y37.24 E524.35469
G0 F9000 X51.39 Y37.64
G1 F3000 X51.39 Y12.12 E525.50044
G1 X79.39 Y12.12 E526.75767
G1 X79.39 Y19.64 E527.09519
G1 X54.39 Y19.64 E528.21772
G1 X54.39 Y37.64 E529.02594
G1 X51.39 Y37.64 E529.16065
G0 F9000 X50.99 Y38.04
G1 F3000 X50.99 Y11.72 E530.34231
G1 X79.79 Y11.72 E531.63547
G1 X79.79 Y20.04 E532.00891
G1 X54.79 Y20.04 E533.13144
G1 X54.79 Y38.04 E533.93966
G1 X50.99 Y38.04 E534.11028
G0 F9000 X50.59 Y38.44
;TYPE:WALL-OUTER
G1 F3000 X50.59 Y11.32 E535.32787
G1 X80.19 Y11.32 E536.65694
G1 X80.19 Y20.44 E537.06631
G1 X55.19 Y20.44 E538.18884
G1 X55.19 Y38.44 E538.99706
G1 X50.59 Y38.44 E539.20360
G0 F9000 X50.80 Y38.14
G0 X53.45 Y36.48
;TYPE:FILL
G1 F3000 X52.33 Y35.36 E539.27472
G0 F9000 X52.33 Y32.52
G1 F3000 X53.45 Y31.40 E539.34584
G0 F9000 X53.45 Y25.16
G1 F3000 X52.33 Y24.05 E539.41696
G0 F9000 X52.33 Y21.21
G1 F3000 X53.45 Y20.09 E539.48808
G0 F9000 X53.19 Y19.50
G1 F3000 X53.45 Y19.24 E539.50434
G0 F9000 X53.99 Y18.70
G1 F3000 X59.63 Y13.06 E539.86229
G0 F9000 X59.07 Y13.06
G1 F3000 X52.63 Y19.50 E540.27110
G0 F9000 X52.33 Y19.23
G1 F3000 X58.50 Y13.06 E540.66293
G0 F9000 X57.93 Y13.06
G1 F3000 X52.33 Y18.66 E541.01881
G0 F9000 X52.33 Y18.10
G1 F3000 X57.37 Y13.06 E541.33876
G0 F9000 X56.80 Y13.06
G1 F3000 X52.33 Y17.53 E541.62282
G0 F9000 X52.33 Y16.97
G1 F3000 X56.24 Y13.06 E541.87095
G0 F9000 X55.67 Y13.06
G1 F3000 X52.33 Y16.40 E542.08313
G0 F9000 X52.33 Y15.83
G1 F3000 X55.11 Y13.06 E542.25941
G0 F9000 X54.54 Y13.06
G1 F3000 X52.33 Y15.27 E542.39977
G0 F9000 X52.33 Y14.70
G1 F3000 X53.97 Y13.06 E542.50420
G0 F9000 X53.41 Y13.06
G1 F3000 X52.33 Y14.14 E542.57272
G0 F9000 X52.33 Y13.57
G1 F3000 X52.75 Y13.06 E542.60532
G1 X53.10 Y13.50 E542.63048
G0 F9000 X54.56 Y18.70
G1 F3000 X60.20 Y13.06 E542.98843
G0 F9000 X60.48 Y13.06
G1 F3000 X60.04 Y13.50 E543.01643
G0 F9000 X60.76 Y13.06
G1 F3000 X55.13 Y18.70 E543.37438
G0 F9000 X55.69 Y18.70
G1 F3000 X61.33 Y13.06 E543.73233
G0 F9000 X61.89 Y13.06
G1 F3000 X56.26 Y18.70 E544.09028
G0 F9000 X56.82 Y18.70
G1 F3000 X62.46 Y13.06 E544.44823
G0 F9000 X63.02 Y13.06
G1 F3000 X57.39 Y18.70 E544.80618
G0 F9000 X57.95 Y18.70
G1 F3000 X63.59 Y13.06 E545.16413
G0 F9000 X63.97 Y13.06
G1 F3000 X64.41 Y13.50 E545.19207
G0 F9000 X64.16 Y13.06
G1 F3000 X58.52 Y18.70 E545.55002
G0 F9000 X59.09 Y18.70
G1 F3000 X64.72 Y13.06 E545.90796
G0 F9000 X65.29 Y13.06
G1 F3000 X59.65 Y18.70 E546.26591
G0 F9000 X60.22 Y18.70
G1 F3000 X65.85 Y13.06 E546.62386
G0 F9000 X66.42 Y13.06
G1 F3000 X60.78 Y18.70 E546.98181
G0 F9000 X61.35 Y18.70
G1 F3000 X66.98 Y13.06 E547.33976
G0 F9000 X67.55 Y13.06
G1 F3000 X61.91 Y18.70 E547.69771
G0 F9000 X62.48 Y18.70
G1 F3000 X68.12 Y13.06 E548.05569
G0 F9000 X68.68 Y13.06
G1 F3000 X63.05 Y18.70 E548.41364
G0 F9000 X63.61 Y18.70
G1 F3000 X69.25 Y13.06 E548.77159
G0 F9000 X69.81 Y13.06
G1 F3000 X64.18 Y18.70 E549.12953
G0 F9000 X64.74 Y18.70
G1 F3000 X70.38 Y13.06 E549.48748
G0 F9000 X70.94 Y13.06
G1 F3000 X65.31 Y18.70 E549.84543
G0 F9000 X65.87 Y18.70
G1 F3000 X71.51 Y13.06 E550.20338
G0 F9000 X71.79 Y13.06
G1 F3000 X71.35 Y13.50 E550.23135
G0 F9000 X72.08 Y13.06
G1 F3000 X66.44 Y18.70 E550.58930
G0 F9000 X67.00 Y18.70
G1 F3000 X72.64 Y13.06 E550.94725
G0 F9000 X73.21 Y13.06
G1 F3000 X67.57 Y18.70 E551.30520
G0 F9000 X68.14 Y18.70
G1 F3000 X73.77 Y13.06 E551.66315
G0 F9000 X74.34 Y13.06
G1 F3000 X68.70 Y18.70 E552.02110
G0 F9000 X69.27 Y18.70
G1 F3000 X74.91 Y13.06 E552.37904
G0 F9000 X75.28 Y13.06
G1 F3000 X75.72 Y13.50 E552.40698
G0 F9000 X75.47 Y13.06
G1 F3000 X69.83 Y18.70 E552.76493
G0 F9000 X70.40 Y18.70
G1 F3000 X76.04 Y13.06 E553.12288
G0 F9000 X76.60 Y13.06
G1 F3000 X70.97 Y18.70 E553.48083
G0 F9000 X71.53 Y18.70
G1 F3000 X77.17 Y13.06 E553.83878
G0 F9000 X77.73 Y13.06
G1 F3000 X72.10 Y18.70 E554.19673
G0 F9000 X72.66 Y18.70
G1 F3000 X78.30 Y13.06 E554.55468
G0 F9000 X78.45 Y13.47
G1 F3000 X73.23 Y18.70 E554.88630
G0 F9000 X73.79 Y18.70
G1 F3000 X78.45 Y14.04 E555.18202
G0 F9000 X78.45 Y14.60
G1 F3000 X74.36 Y18.70 E555.44180
G0 F9000 X74.92 Y18.70
G1 F3000 X78.45 Y15.17 E555.66564
G0 F9000 X78.45 Y15.73
G1 F3000 X75.49 Y18.70 E555.85360
G0 F9000 X76.06 Y18.70
G1 F3000 X78.45 Y16.30 E556.00562
G0 F9000 X78.45 Y16.87
G1 F3000 X76.62 Y18.70 E556.12169
G0 F9000 X77.19 Y18.70
G1 F3000 X78.45 Y17.43 E556.20186
G0 F9000 X78.45 Y18.00
G1 F3000 X77.75 Y18.70 E556.24612
G0 F9000 X78.32 Y18.70
G1 F3000 X78.45 Y18.56 E556.25444
G1 F1200 E555.75444
G0 F9000 X49.69 Y22.79
;TYPE:SUPPORT
G1 F1200 E556.25444
G1 F3000 X49.69 Y39.12 E556.98781
G1 X42.89 Y39.12 E557.29314
G1 X42.89 Y26.19 E557.87385
G1 X49.69 Y22.79 E558.21521
G0 F9000 X49.75 Y23.99
G1 F3000 X47.14 Y23.99 E558.33250
G0 F9000 X47.21 Y24.14
G0 X45.39 Y25.05
G0 X45.32 Y24.90
G1 F3000 X45.32 Y39.18 E558.97351
G0 F9000 X45.32 Y39.02
G0 X42.99 Y34.66
G0 X42.83 Y34.66
G1 F3000 X49.75 Y34.66 E559.28422
G0 F9000 X49.59 Y34.66
G0 X49.59 Y29.33
G0 X49.75 Y29.33
G1 F3000 X42.83 Y29.33 E559.59494
;LAYER:14
G1 F1200 E559.09494
G0 F9000 X52.19 Y36.84 Z4.50
;TYPE:WALL-INNER
G1 F1200 E559.59494
G1 F3000 X52.19 Y12.92 E560.66884
G1 X78.59 Y12.92 E561.85423
G1 X78.59 Y18.84 E562.11991
G1 X53.59 Y18.84 E563.24244
G1 X53.59 Y36.84 E564.05066
G1 X52.19 Y36.84 E564.11352
G0 F9000 X51.79 Y37.24
G1 F3000 X51.79 Y12.52 E565.22335
G1 X78.99 Y12.52 E566.44466
G1 X78.99 Y19.24 E566.74626
G1 X53.99 Y19.24 E567.86879
G1 X53.99 Y37.24 E568.67701
G1 X51.79 Y37.24 E568.77579
G0 F9000 X51.39 Y37.64
G1 F3000 X51.39 Y12.12 E569.92154
G1 X79.39 Y12.12 E571.17877
G1 X79.39 Y19.64 E571.51629
G1 X54.39 Y19.64 E572.63882
G1 X54.39 Y37.64 E573.44704
G1 X51.39 Y37.64 E573.58175
G0 F9000 X50.99 Y38.04
G1 F3000 X50.99 Y11.72 E574.76341
G1 X79.79 Y11.72 E576.05656
G1 X79.79 Y20.04 E576.43001
G1 X54.79 Y20.04 E577.55254
G1 X54.79 Y38.04 E578.36076
G1 X50.99 Y38.04 E578.53138
G0 F9000 X50.59 Y38.44
;TYPE:WALL-OUTER
G1 F3000 X50.59 Y11.32 E579.74897
G1 X80.19 Y11.32 E581.07804
G1 X80.19 Y20.44 E581.48741
G1 X55.19 Y20.44 E582.60994
G1 X55.19 Y38.44 E583.41816
G1 X50.59 Y38.44 E583.62470
G0 F9000 X50.80 Y38.14
G0 X53.45 Y36.48
;TYPE:FILL
G1 F3000 X52.33 Y35.36 E583.69582
G0 F9000 X52.33 Y32.52
G1 F3000 X53.45 Y31.40 E583.76694
G0 F9000 X53.45 Y25.16
G1 F3000 X52.33 Y24.05 E583.83806
G0 F9000 X52.33 Y21.21
G1 F3000 X53.45 Y20.09 E583.90918
G0 F9000 X53.15 Y19.50
G1 F3000 X52.33 Y18.67 E583.96154
G0 F9000 X52.33 Y18.11
G1 F3000 X53.45 Y19.23 E584.03266
G0 F9000 X53.48 Y18.70
G1 F3000 X52.33 Y17.54 E584.10600
G0 F9000 X52.33 Y16.97
G1 F3000 X54.05 Y18.70 E584.21528
G0 F9000 X54.62 Y18.70
G1 F3000 X52.33 Y16.41 E584.36044
G0 F9000 X52.33 Y15.84
G1 F3000 X55.18 Y18.70 E584.54155
G0 F9000 X55.75 Y18.70
G1 F3000 X52.33 Y15.28 E584.75859
G0 F9000 X52.33 Y14.71
G1 F3000 X56.31 Y18.70 E585.01151
G0 F9000 X56.88 Y18.70
G1 F3000 X52.33 Y14.15 E585.30037
G0 F9000 X52.33 Y13.58
G1 F3000 X57.45 Y18.70 E585.62517
G0 F9000 X58.01 Y18.70
G1 F3000 X52.37 Y13.06 E585.98315
G0 F9000 X52.66 Y13.06
G1 F3000 X53.10 Y13.50 E586.01135
G0 F9000 X52.94 Y13.06
G1 F3000 X58.58 Y18.70 E586.36929
G0 F9000 X59.14 Y18.70
G1 F3000 X53.51 Y13.06 E586.72724
G0 F9000 X54.07 Y13.06
G1 F3000 X59.71 Y18.70 E587.08519
G0 F9000 X60.27 Y18.70
G1 F3000 X54.64 Y13.06 E587.44314
G0 F9000 X55.20 Y13.06
G1 F3000 X60.84 Y18.70 E587.80109
G0 F9000 X61.41 Y18.70
G1 F3000 X55.77 Y13.06 E588.15904
G0 F9000 X56.33 Y13.06
G1 F3000 X61.97 Y18.70 E588.51699
G0 F9000 X62.54 Y18.70
G1 F3000 X56.90 Y13.06 E588.87494
G0 F9000 X57.47 Y13.06
G1 F3000 X63.10 Y18.70 E589.23288
G0 F9000 X63.67 Y18.70
G1 F3000 X58.03 Y13.06 E589.59083
G0 F9000 X58.60 Y13.06
G1 F3000 X64.23 Y18.70 E589.94878
G0 F9000 X64.80 Y18.70
G1 F3000 X59.16 Y13.06 E590.30673
G0 F9000 X59.73 Y13.06
G1 F3000 X65.36 Y18.70 E590.66468
G0 F9000 X65.93 Y18.70
G1 F3000 X60.29 Y13.06 E591.02263
G0 F9000 X60.48 Y13.06
G1 F3000 X60.04 Y13.50 E591.05082
G0 F9000 X60.86 Y13.06
G1 F3000 X66.50 Y18.70 E591.40877
G0 F9000 X67.06 Y18.70
G1 F3000 X61.42 Y13.06 E591.76675
G0 F9000 X61.99 Y13.06
G1 F3000 X67.63 Y18.70 E592.12470
G0 F9000 X68.19 Y18.70
G1 F3000 X62.56 Y13.06 E592.48265
G0 F9000 X63.12 Y13.06
G1 F3000 X68.76 Y18.70 E592.84060
G0 F9000 X69.32 Y18.70
G1 F3000 X63.69 Y13.06 E593.19855
G0 F9000 X63.97 Y13.06
G1 F3000 X64.41 Y13.50 E593.22674
G0 F9000 X64.25 Y13.06
G1 F3000 X69.89 Y18.70 E593.58469
G0 F9000 X70.46 Y18.70
G1 F3000 X64.82 Y13.06 E593.94264
G0 F9000 X65.38 Y13.06
G1 F3000 X71.02 Y18.70 E594.30059
G0 F9000 X71.59 Y18.70
G1 F3000 X65.95 Y13.06 E594.65853
G0 F9000 X66.52 Y13.06
G1 F3000 X72.15 Y18.70 E595.01648
G0 F9000 X72.72 Y18.70
G1 F3000 X67.08 Y13.06 E595.37443
G0 F9000 X67.65 Y13.06
G1 F3000 X73.28 Y18.70 E595.73238
G0 F9000 X73.85 Y18.70
G1 F3000 X68.21 Y13.06 E596.09033
G0 F9000 X68.78 Y13.06
G1 F3000 X74.42 Y18.70 E596.44828
G0 F9000 X74.98 Y18.70
G1 F3000 X69.34 Y13.06 E596.80623
G0 F9000 X69.91 Y13.06
G1 F3000 X75.55 Y18.70 E597.16418
G0 F9000 X76.11 Y18.70
G1 F3000 X70.47 Y13.06 E597.52212
G0 F9000 X71.04 Y13.06
G1 F3000 X76.68 Y18.70 E597.88007
G0 F9000 X77.24 Y18.70
G1 F3000 X71.61 Y13.06 E598.23802
G0 F9000 X71.79 Y13.06
G1 F3000 X71.35 Y13.50 E598.26622
G0 F9000 X72.17 Y13.06
G1 F3000 X77.81 Y18.70 E598.62420
G0 F9000 X78.38 Y18.70
G1 F3000 X72.74 Y13.06 E598.98214
G0 F9000 X73.30 Y13.06
G1 F3000 X78.45 Y18.20 E599.30895
G0 F9000 X78.45 Y17.64
G1 F3000 X73.87 Y13.06 E599.59981
G0 F9000 X74.44 Y13.06
G1 F3000 X78.45 Y17.07 E599.85476
G0 F9000 X78.45 Y16.51
G1 F3000 X75.00 Y13.06 E600.07380
G0 F9000 X75.28 Y13.06
G1 F3000 X75.73 Y13.50 E600.10200
G0 F9000 X75.57 Y13.06
G1 F3000 X78.45 Y15.94 E600.28510
G0 F9000 X78.45 Y15.38
G1 F3000 X76.13 Y13.06 E600.43229
G0 F9000 X76.70 Y13.06
G1 F3000 X78.45 Y14.81 E600.54357
G0 F9000 X78.45 Y14.24
G1 F3000 X77.26 Y13.06 E600.61892
G0 F9000 X77.83 Y13.06
G1 F3000 X78.45 Y13.68 E600.65835
G0 F9000 X52.59 Y19.50
G1 F3000 X52.33 Y19.24 E600.67477
G1 F1200 E600.17477
G0 F9000 X49.69 Y22.79
;TYPE:SUPPORT
G1 F1200 E600.67477
G1 F3000 X49.69 Y39.12 E601.40814
G1 X42.89 Y39.12 E601.71346
G1 X42.89 Y26.19 E602.29417
G1 X49.69 Y22.79 E602.63554
G0 F9000 X49.75 Y23.99
G1 F3000 X47.14 Y23.99 E602.75282
G0 F9000 X47.21 Y24.14
G0 X45.39 Y25.05
G0 X45.32 Y24.90
G1 F3000 X45.32 Y39.18 E603.39383
G0 F9000 X45.32 Y39.02
G0 X42.99 Y34.66
G0 X42.83 Y34.66
G1 F3000 X49.75 Y34.66 E603.70455
G0 F9000 X49.59 Y34.66
G0 X49.59 Y29.33
G0 X49.75 Y29.33
G1 F3000 X42.83 Y29.33 E604.01526
;LAYER:15
G1 F1200 E603.51526
G0 F9000 X52.19 Y36.84 Z4.80
;TYPE:WALL-INNER
G1 F1200 E604.01526
G1 F3000 X52.19 Y12.92 E605.08916
G1 X78.59 Y12.92 E606.27455
G1 X78.59 Y18.84 E606.54024
G1 X53.59 Y18.84 E607.66276
G1 X53.59 Y36.84 E608.47099
G1 X52.19 Y36.84 E608.53385
G0 F9000 X51.79 Y37.24
G1 F3000 X51.79 Y12.52 E609.64367
G1 X78.99 Y12.52 E610.86498
G1 X78.99 Y19.24 E611.16658
G1 X53.99 Y19.24 E612.28911
G1 X53.99 Y37.24 E613.09733
G1 X51.79 Y37.24 E613.19612
G0 F9000 X51.39 Y37.64
G1 F3000 X51.39 Y12.12 E614.34186
G1 X79.39 Y12.12 E615.59909
G1 X79.39 Y19.64 E615.93662
G1 X54.39 Y19.64 E617.05915
G1 X54.39 Y37.64 E617.86737
G1 X51.39 Y37.64 E618.00207
G0 F9000 X50.99 Y38.04
G1 F3000 X50.99 Y11.72 E619.18373
G1 X79.79 Y11.72 E620.47689
G1 X79.79 Y20.04 E620.85033
G1 X54.79 Y20.04 E621.97286
G1 X54.79 Y38.04 E622.78108
G1 X50.99 Y38.04 E622.95171
G0 F9000 X50.59 Y38.44
;TYPE:WALL-OUTER
G1 F3000 X50.59 Y11.32 E624.16929
G1 X80.19 Y11.32 E625.49837
G1 X80.19 Y20.44 E625.90773
G1 X55.19 Y20.44 E627.03026
G1 X55.19 Y38.44 E627.83848
G1 X50.59 Y38.44 E628.04503
G0 F9000 X50.80 Y38.14
G0 X53.45 Y36.48
;TYPE:FILL
G1 F3000 X52.33 Y35.36 E628.11615
G0 F9000 X52.33 Y32.52
G1 F3000 X53.45 Y31.40 E628.18727
G0 F9000 X53.45 Y25.16
G1 F3000 X52.33 Y24.05 E628.25839
G0 F9000 X52.33 Y21.21
G1 F3000 X53.45 Y20.09 E628.32951
G0 F9000 X53.19 Y19.50
G1 F3000 X53.45 Y19.24 E628.34576
G0 F9000 X53.99 Y18.70
G1 F3000 X59.63 Y13.06 E628.70371
G0 F9000 X59.07 Y13.06
G1 F3000 X52.63 Y19.50 E629.11252
G0 F9000 X52.33 Y19.23
G1 F3000 X58.50 Y13.06 E629.50435
G0 F9000 X57.93 Y13.06
G1 F3000 X52.33 Y18.66 E629.86023
G0 F9000 X52.33 Y18.10
G1 F3000 X57.37 Y13.06 E630.18018
G0 F9000 X56.80 Y13.06
G1 F3000 X52.33 Y17.53 E630.46425
G0 F9000 X52.33 Y16.97
G1 F3000 X56.24 Y13.06 E630.71237
G0 F9000 X55.67 Y13.06
G1 F3000 X52.33 Y16.40 E630.92456
G0 F9000 X52.33 Y15.83
G1 F3000 X55.11 Y13.06 E631.10083
G0 F9000 X54.54 Y13.06
G1 F3000 X52.33 Y15.27 E631.24120
G0 F9000 X52.33 Y14.70
G1 F3000 X53.97 Y13.06 E631.34562
G0 F9000 X53.41 Y13.06
G1 F3000 X52.33 Y14.14 E631.41414
G0 F9000 X52.33 Y13.57
G1 F3000 X52.75 Y13.06 E631.44674
G1 X53.10 Y13.51 E631.47247
G0 F9000 X54.56 Y18.70
G1 F3000 X60.20 Y13.06 E631.83042
G0 F9000 X60.48 Y13.06
G1 F3000 X60.03 Y13.51 E631.85893
G0 F9000 X60.76 Y13.06
G1 F3000 X55.13 Y18.70 E632.21688
G0 F9000 X55.69 Y18.70
G1 F3000 X61.33 Y13.06 E632.57483
G0 F9000 X61.89 Y13.06
G1 F3000 X56.26 Y18.70 E632.93278
G0 F9000 X56.82 Y18.70
G1 F3000 X62.46 Y13.06 E633.29073
G0 F9000 X63.02 Y13.06
G1 F3000 X57.39 Y18.70 E633.64868
G0 F9000 X57.95 Y18.70
G1 F3000 X63.59 Y13.06 E634.00663
G0 F9000 X63.97 Y13.06
G1 F3000 X64.42 Y13.51 E634.03511
G0 F9000 X64.16 Y13.06
G1 F3000 X58.52 Y18.70 E634.39305
G0 F9000 X59.09 Y18.70
G1 F3000 X64.72 Y13.06 E634.75100
G0 F9000 X65.29 Y13.06
G1 F3000 X59.65 Y18.70 E635.10895
G0 F9000 X60.22 Y18.70
G1 F3000 X65.85 Y13.06 E635.46690
G0 F9000 X66.42 Y13.06
G1 F3000 X60.78 Y18.70 E635.82485
G0 F9000 X61.35 Y18.70
G1 F3000 X66.98 Y13.06 E636.18280
G0 F9000 X67.55 Y13.06
G1 F3000 X61.91 Y18.70 E636.54075
G0 F9000 X62.48 Y18.70
G1 F3000 X68.12 Y13.06 E636.89873
G0 F9000 X68.68 Y13.06
G1 F3000 X63.05 Y18.70 E637.25668
G0 F9000 X63.61 Y18.70
G1 F3000 X69.25 Y13.06 E637.61462
G0 F9000 X69.81 Y13.06
G1 F3000 X64.18 Y18.70 E637.97257
G0 F9000 X64.74 Y18.70
G1 F3000 X70.38 Y13.06 E638.33052
G0 F9000 X70.94 Y13.06
G1 F3000 X65.31 Y18.70 E638.68847
G0 F9000 X65.87 Y18.70
G1 F3000 X71.51 Y13.06 E639.04642
G0 F9000 X71.79 Y13.06
G1 F3000 X71.34 Y13.51 E639.07490
G0 F9000 X72.08 Y13.06
G1 F3000 X66.44 Y18.70 E639.43285
G0 F9000 X67.00 Y18.70
G1 F3000 X72.64 Y13.06 E639.79080
G0 F9000 X73.21 Y13.06
G1 F3000 X67.57 Y18.70 E640.14875
G0 F9000 X68.14 Y18.70
G1 F3000 X73.77 Y13.06 E640.50669
G0 F9000 X74.34 Y13.06
G1 F3000 X68.70 Y18.70 E640.86464
G0 F9000 X69.27 Y18.70
G1 F3000 X74.91 Y13.06 E641.22259
G0 F9000 X75.28 Y13.06
G1 F3000 X75.73 Y13.51 E641.25107
G0 F9000 X75.47 Y13.06
G1 F3000 X69.83 Y18.70 E641.60902
G0 F9000 X70.40 Y18.70
G1 F3000 X76.04 Y13.06 E641.96697
G0 F9000 X76.60 Y13.06
G1 F3000 X70.97 Y18.70 E642.32492
G0 F9000 X71.53 Y18.70
G1 F3000 X77.17 Y13.06 E642.68287
G0 F9000 X77.73 Y13.06
G1 F3000 X72.10 Y18.70 E643.04081
G0 F9000 X72.66 Y18.70
G1 F3000 X78.30 Y13.06 E643.39876
G0 F9000 X78.45 Y13.47
G1 F3000 X73.23 Y18.70 E643.73039
G0 F9000 X73.79 Y18.70
G1 F3000 X78.45 Y14.04 E644.02611
G0 F9000 X78.45 Y14.60
G1 F3000 X74.36 Y18.70 E644.28589
G0 F9000 X74.92 Y18.70
G1 F3000 X78.45 Y15.17 E644.50972
G0 F9000 X78.45 Y15.73
G1 F3000 X75.49 Y18.70 E644.69768
G0 F9000 X76.06 Y18.70
G1 F3000 X78.45 Y16.30 E644.84970
G0 F9000 X78.45 Y16.87
G1 F3000 X76.62 Y18.70 E644.96578
G0 F9000 X77.19 Y18.70
G1 F3000 X78.45 Y17.43 E645.04595
G0 F9000 X78.45 Y18.00
G1 F3000 X77.75 Y18.70 E645.09021
G0 F9000 X78.32 Y18.70
G1 F3000 X78.45 Y18.56 E645.09853
G1 F1200 E644.59853
G0 F9000 X49.69 Y22.79
;TYPE:SUPPORT
G1 F1200 E645.09853
G1 F3000 X49.69 Y39.12 E645.83190
G1 X42.89 Y39.12 E646.13723
G1 X42.89 Y26.19 E646.71793
G1 X49.69 Y22.79 E647.05930
G0 F9000 X49.75 Y23.99
G1 F3000 X47.14 Y23.99 E647.17658
G0 F9000 X47.21 Y24.14
G0 X45.39 Y25.05
G0 X45.32 Y24.90
G1 F3000 X45.32 Y39.18 E647.81759
G0 F9000 X45.32 Y39.02
G0 X42.99 Y34.66
G0 X42.83 Y34.66
G1 F3000 X49.75 Y34.66 E648.12831
G0 F9000 X49.59 Y34.66
G0 X49.59 Y29.33
G0 X49.75 Y29.33
G1 F3000 X42.83 Y29.33 E648.43902
;LAYER:16
G1 F1200 E647.93902
G0 F9000 X52.19 Y36.84 Z5.10
;TYPE:WALL-INNER
G1 F1200 E648.43902
G1 F3000 X52.19 Y12.92 E649.51293
G1 X78.59 Y12.92 E650.69832
G1 X78.59 Y18.84 E650.96400
G1 X53.59 Y18.84 E652.08653
G1 X53.59 Y36.84 E652.89475
G1 X52.19 Y36.84 E652.95761
G0 F9000 X51.79 Y37.24
G1 F3000 X51.79 Y12.52 E654.06743
G1 X78.99 Y12.52 E655.28874
G1 X78.99 Y19.24 E655.59035
G1 X53.99 Y19.24 E656.71288
G1 X53.99 Y37.24 E657.52110
G1 X51.79 Y37.24 E657.61988
G0 F9000 X51.39 Y37.64
G1 F3000 X51.39 Y12.12 E658.76562
G1 X79.39 Y12.12 E660.02286
G1 X79.39 Y19.64 E660.36038
G1 X54.39 Y19.64 E661.48291
G1 X54.39 Y37.64 E662.29113
G1 X51.39 Y37.64 E662.42583
G0 F9000 X50.99 Y38.04
G1 F3000 X50.99 Y11.72 E663.60750
G1 X79.79 Y11.72 E664.90065
G1 X79.79 Y20.04 E665.27409
G1 X54.79 Y20.04 E666.39662
G1 X54.79 Y38.04 E667.20484
G1 X50.99 Y38.04 E667.37547
G0 F9000 X50.59 Y38.44
;TYPE:WALL-OUTER
G1 F3000 X50.59 Y11.32 E668.59305
G1 X80.19 Y11.32 E669.92213
G1 X80.19 Y20.44 E670.33149
G1 X55.19 Y20.44 E671.45402
G1 X55.19 Y38.44 E672.26224
G1 X50.59 Y38.44 E672.46879
G0 F9000 X50.80 Y38.14
G0 X53.45 Y36.48
;TYPE:FILL
G1 F3000 X52.33 Y35.36 E672.53991
G0 F9000 X52.33 Y32.52
G1 F3000 X53.45 Y31.40 E672.61103
G0 F9000 X53.45 Y25.16
G1 F3000 X52.33 Y24.05 E672.68215
G0 F9000 X52.33 Y21.21
G1 F3000 X53.45 Y20.09 E672.75327
G0 F9000 X53.15 Y19.50
G1 F3000 X52.33 Y18.67 E672.80562
G0 F9000 X52.33 Y18.11
G1 F3000 X53.45 Y19.23 E672.87674
G0 F9000 X53.48 Y18.70
G1 F3000 X52.33 Y17.54 E672.95009
G0 F9000 X52.33 Y16.97
G1 F3000 X54.05 Y18.70 E673.05937
G0 F9000 X54.62 Y18.70
G1 F3000 X52.33 Y16.41 E673.20453
G0 F9000 X52.33 Y15.84
G1 F3000 X55.18 Y18.70 E673.38563
G0 F9000 X55.75 Y18.70
G1 F3000 X52.33 Y15.28 E673.60268
G0 F9000 X52.33 Y14.71
G1 F3000 X56.31 Y18.70 E673.85560
G0 F9000 X56.88 Y18.70
G1 F3000 X52.33 Y14.15 E674.14446
G0 F9000 X52.33 Y13.58
G1 F3000 X57.45 Y18.70 E674.46926
G0 F9000 X58.01 Y18.70
G1 F3000 X52.37 Y13.06 E674.82724
G0 F9000 X52.66 Y13.06
G1 F3000 X53.11 Y13.51 E674.85594
G0 F9000 X52.94 Y13.06
G1 F3000 X58.58 Y18.70 E675.21389
G0 F9000 X59.14 Y18.70
G1 F3000 X53.51 Y13.06 E675.57184
G0 F9000 X54.07 Y13.06
G1 F3000 X59.71 Y18.70 E675.92979
G0 F9000 X60.27 Y18.70
G1 F3000 X54.64 Y13.06 E676.28774
G0 F9000 X55.20 Y13.06
G1 F3000 X60.84 Y18.70 E676.64568
G0 F9000 X61.41 Y18.70
G1 F3000 X55.77 Y13.06 E677.00363
G0 F9000 X56.33 Y13.06
G1 F3000 X61.97 Y18.70 E677.36158
G0 F9000 X62.54 Y18.70
G1 F3000 X56.90 Y13.06 E677.71953
G0 F9000 X57.47 Y13.06
G1 F3000 X63.10 Y18.70 E678.07748
G0 F9000 X63.67 Y18.70
G1 F3000 X58.03 Y13.06 E678.43543
G0 F9000 X58.60 Y13.06
G1 F3000 X64.23 Y18.70 E678.79338
G0 F9000 X64.80 Y18.70
G1 F3000 X59.16 Y13.06 E679.15132
G0 F9000 X59.73 Y13.06
G1 F3000 X65.36 Y18.70 E679.50927
G0 F9000 X65.93 Y18.70
G1 F3000 X60.29 Y13.06 E679.86722
G0 F9000 X60.48 Y13.06
G1 F3000 X60.03 Y13.51 E679.89599
G0 F9000 X60.86 Y13.06
G1 F3000 X66.50 Y18.70 E680.25394
G0 F9000 X67.06 Y18.70
G1 F3000 X61.42 Y13.06 E680.61192
G0 F9000 X61.99 Y13.06
G1 F3000 X67.63 Y18.70 E680.96987
G0 F9000 X68.19 Y18.70
G1 F3000 X62.56 Y13.06 E681.32781
G0 F9000 X63.12 Y13.06
G1 F3000 X68.76 Y18.70 E681.68576
G0 F9000 X69.32 Y18.70
G1 F3000 X63.69 Y13.06 E682.04371
G0 F9000 X63.97 Y13.06
G1 F3000 X64.42 Y13.51 E682.07241
G0 F9000 X64.25 Y13.06
G1 F3000 X69.89 Y18.70 E682.43036
G0 F9000 X70.46 Y18.70
G1 F3000 X64.82 Y13.06 E682.78831
G0 F9000 X65.38 Y13.06
G1 F3000 X71.02 Y18.70 E683.14626
G0 F9000 X71.59 Y18.70
G1 F3000 X65.95 Y13.06 E683.50421
G0 F9000 X66.52 Y13.06
G1 F3000 X72.15 Y18.70 E683.86216
G0 F9000 X72.72 Y18.70
G1 F3000 X67.08 Y13.06 E684.22011
G0 F9000 X67.65 Y13.06
G1 F3000 X73.28 Y18.70 E684.57805
G0 F9000 X73.85 Y18.70
G1 F3000 X68.21 Y13.06 E684.93600
G0 F9000 X68.78 Y13.06
G1 F3000 X74.42 Y18.70 E685.29395
G0 F9000 X74.98 Y18.70
G1 F3000 X69.34 Y13.06 E685.65190
G0 F9000 X69.91 Y13.06
G1 F3000 X75.55 Y18.70 E686.00985
G0 F9000 X76.11 Y18.70
G1 F3000 X70.47 Y13.06 E686.36780
G0 F9000 X71.04 Y13.06
G1 F3000 X76.68 Y18.70 E686.72575
G0 F9000 X77.24 Y18.70
G1 F3000 X71.61 Y13.06 E687.08370
G0 F9000 X71.79 Y13.06
G1 F3000 X71.34 Y13.51 E687.11243
G0 F9000 X72.17 Y13.06
G1 F3000 X77.81 Y18.70 E687.47041
G0 F9000 X78.38 Y18.70
G1 F3000 X72.74 Y13.06 E687.82836
G0 F9000 X73.30 Y13.06
G1 F3000 X78.45 Y18.20 E688.15516
G0 F9000 X78.45 Y17.64
G1 F3000 X73.87 Y13.06 E688.44602
G0 F9000 X74.44 Y13.06
G1 F3000 X78.45 Y17.07 E688.70097
G0 F9000 X78.45 Y16.51
G1 F3000 X75.00 Y13.06 E688.92002
G0 F9000 X75.28 Y13.06
G1 F3000 X75.74 Y13.51 E688.94872
G0 F9000 X75.57 Y13.06
G1 F3000 X78.45 Y15.94 E689.13182
G0 F9000 X78.45 Y15.38
G1 F3000 X76.13 Y13.06 E689.27901
G0 F9000 X76.70 Y13.06
G1 F3000 X78.45 Y14.81 E689.39030
G0 F9000 X78.45 Y14.24
G1 F3000 X77.26 Y13.06 E689.46564
G0 F9000 X77.83 Y13.06
G1 F3000 X78.45 Y13.68 E689.50507
G0 F9000 X52.59 Y19.50
G1 F3000 X52.33 Y19.24 E689.52149
G1 F1200 E689.02149
G0 F9000 X49.69 Y22.79
;TYPE:SUPPORT
G1 F1200 E689.52149
G1 F3000 X49.69 Y39.12 E690.25486
G1 X42.89 Y39.12 E690.56019
G1 X42.89 Y26.19 E691.14089
G1 X49.69 Y22.79 E691.48226
G0 F9000 X49.75 Y23.99
G1 F3000 X47.14 Y23.99 E691.59954
G0 F9000 X47.21 Y24.14
G0 X45.39 Y25.05
G0 X45.32 Y24.90
G1 F3000 X45.32 Y39.18 E692.24055
G0 F9000 X45.32 Y39.02
G0 X42.99 Y34.66
G0 X42.83 Y34.66
G1 F3000 X49.75 Y34.66 E692.55127
G0 F9000 X49.59 Y34.66
G0 X49.59 Y29.33
G0 X49.75 Y29.33
G1 F3000 X42.83 Y29.33 E692.86198
;LAYER:17
G1 F1200 E692.36198
G0 F9000 X52.19 Y36.84 Z5.40
;TYPE:WALL-INNER
G1 F1200 E692.86198
G1 F3000 X52.19 Y19.44 E693.64326
G1 X53.59 Y19.44 E693.70613
G1 X53.59 Y36.84 E694.48741
G1 X52.19 Y36.84 E694.55027
G0 F9000 X51.79 Y37.24
G1 F3000 X51.79 Y19.04 E695.36747
G1 X78.99 Y19.04 E696.58878
G1 X78.99 Y19.24 E696.59776
G1 X53.99 Y19.24 E697.72029
G1 X53.99 Y37.24 E698.52851
G1 X51.79 Y37.24 E698.62730
G0 F9000 X51.39 Y37.64
G1 F3000 X51.39 Y18.64 E699.48042
G1 X79.39 Y18.64 E700.73765
G1 X79.39 Y19.64 E700.78255
G1 X54.39 Y19.64 E701.90508
G1 X54.39 Y37.64 E702.71330
G1 X51.39 Y37.64 E702.84801
G0 F9000 X50.99 Y38.04
G1 F3000 X50.99 Y18.24 E703.73705
G1 X79.79 Y18.24 E705.03020
G1 X79.79 Y20.04 E705.11103
G1 X54.79 Y20.04 E706.23356
G1 X54.79 Y38.04 E707.04178
G1 X50.99 Y38.04 E707.21240
G0 F9000 X50.59 Y38.44
;TYPE:WALL-OUTER
G1 F3000 X50.59 Y17.84 E708.13737
G1 X80.19 Y17.84 E709.46644
G1 X80.19 Y20.44 E709.58318
G1 X55.19 Y20.44 E710.70571
G1 X55.19 Y38.44 E711.51393
G1 X50.59 Y38.44 E711.72048
G0 F9000 X50.80 Y38.14
G0 X53.45 Y36.48
;TYPE:FILL
G1 F3000 X52.33 Y35.36 E711.79160
G0 F9000 X52.33 Y32.52
G1 F3000 X53.45 Y31.40 E711.86272
G0 F9000 X53.45 Y25.16
G1 F3000 X52.33 Y24.05 E711.93384
G0 F9000 X52.33 Y21.21
G1 F3000 X53.45 Y20.09 E712.00496
G1 F1200 E711.50496
G0 F9000 X51.79 Y13.04
;TYPE:WALL-INNER
G1 F1200 E712.00496
G1 F3000 X51.79 Y12.52 E712.02831
G1 X78.99 Y12.52 E713.24962
G1 X78.99 Y13.04 E713.27297
G1 X51.79 Y13.04 E714.49428
G0 F9000 X51.39 Y13.44
G1 F3000 X51.39 Y12.12 E714.55355
G1 X79.39 Y12.12 E715.81078
G1 X79.39 Y13.44 E715.87005
G1 X51.39 Y13.44 E717.12729
G0 F9000 X50.99 Y13.84
G1 F3000 X50.99 Y11.72 E717.22248
G1 X79.79 Y11.72 E718.51563
G1 X79.79 Y13.84 E718.61082
G1 X50.99 Y13.84 E719.90398
G0 F9000 X50.59 Y14.24
;TYPE:WALL-OUTER
G1 F3000 X50.59 Y11.32 E720.03509
G1 X80.19 Y11.32 E721.36416
G1 X80.19 Y14.24 E721.49527
G1 X50.59 Y14.24 E722.82435
G0 F9000 X50.80 Y13.94
G0 X51.93 Y12.84
;TYPE:FILL
G1 F3000 X52.18 Y12.66 E722.83580
G1 X52.47 Y12.90 E722.85100
G1 X52.84 Y12.78 E722.86622
G1 X53.41 Y12.78 E722.88144
G1 X53.97 Y12.78 E722.89663
G1 X54.54 Y12.78 E722.91181
G1 X55.10 Y12.78 E722.92700
G1 X55.67 Y12.78 E722.94215
G1 X56.23 Y12.78 E722.95734
G1 X56.80 Y12.78 E722.97252
G1 X57.37 Y12.78 E722.98768
G1 X57.93 Y12.78 E723.00287
G1 X58.50 Y12.78 E723.01805
G1 X59.06 Y12.78 E723.03321
G1 X59.63 Y12.78 E723.04839
G1 X60.19 Y12.78 E723.06358
G1 X60.62 Y12.78 E723.07871
G1 X60.90 Y12.78 E723.09388
G1 X61.33 Y12.78 E723.10910
G1 X61.89 Y12.78 E723.12428
G1 X62.46 Y12.78 E723.13944
G1 X63.02 Y12.78 E723.15462
G1 X63.50 Y12.66 E723.16983
G1 X63.78 Y12.90 E723.18500
G1 X64.15 Y12.78 E723.20022
G1 X64.72 Y12.78 E723.21537
G1 X65.28 Y12.78 E723.23056
G1 X65.85 Y12.78 E723.24574
G1 X66.42 Y12.78 E723.26090
G1 X66.98 Y12.78 E723.27609
G1 X67.55 Y12.78 E723.29127
G1 X68.11 Y12.78 E723.30643
G1 X68.68 Y12.78 E723.32161
G1 X69.25 Y12.78 E723.33680
G1 X69.81 Y12.78 E723.35196
G1 X70.38 Y12.78 E723.36714
G1 X70.94 Y12.78 E723.38233
G1 X71.51 Y12.78 E723.39749
G1 X71.93 Y12.78 E723.41267
G1 X72.21 Y12.78 E723.42789
G1 X72.64 Y12.78 E723.44310
G1 X73.20 Y12.78 E723.45833
G1 X73.77 Y12.78 E723.47351
G1 X74.34 Y12.78 E723.48870
G1 X74.81 Y12.66 E723.50393
G1 X75.09 Y12.90 E723.51913
G1 X75.47 Y12.78 E723.53431
G1 X76.03 Y12.78 E723.54949
G1 X76.60 Y12.78 E723.56468
G1 X77.16 Y12.78 E723.57983
G1 X77.73 Y12.78 E723.59502
G1 X78.30 Y12.78 E723.61020
G1 X78.70 Y12.66 E723.62904
G1 F1200 E723.12904
G0 F9000 X49.69 Y22.79
;TYPE:SUPPORT
G1 F1200 E723.62904
G1 F3000 X49.69 Y39.12 E724.36241
G1 X42.89 Y39.12 E724.66774
G1 X42.89 Y26.19 E725.24845
G1 X49.69 Y22.79 E725.58981
G0 F9000 X49.75 Y23.99
G1 F3000 X47.14 Y23.99 E725.70710
G0 F9000 X47.21 Y24.14
G0 X45.39 Y25.05
G0 X45.32 Y24.90
G1 F3000 X45.32 Y39.18 E726.34811
G0 F9000 X45.32 Y39.02
G0 X42.99 Y34.66
G0 X42.83 Y34.66
G1 F3000 X49.75 Y34.66 E726.65882
G0 F9000 X49.59 Y34.66
G0 X49.59 Y29.33
G0 X49.75 Y29.33
G1 F3000 X42.83 Y29.33 E726.96954
;LAYER:18
G1 F1200 E726.46954
G0 F9000 X52.19 Y36.84 Z5.70
;TYPE:WALL-INNER
G1 F1200 E726.96954
G1 F3000 X52.19 Y19.44 E727.75082
G1 X53.59 Y19.44 E727.81368
G1 X53.59 Y36.84 E728.59496
G1 X52.19 Y36.84 E728.65782
G0 F9000 X51.79 Y37.24
G1 F3000 X51.79 Y19.04 E729.47502
G1 X78.99 Y19.04 E730.69634
G1 X78.99 Y19.24 E730.70532
G1 X53.99 Y19.24 E731.82785
G1 X53.99 Y37.24 E732.63607
G1 X51.79 Y37.24 E732.73485
G0 F9000 X51.39 Y37.64
G1 F3000 X51.39 Y18.64 E733.58797
G1 X79.39 Y18.64 E734.84521
G1 X79.39 Y19.64 E734.89011
G1 X54.39 Y19.64 E736.01264
G1 X54.39 Y37.64 E736.82086
G1 X51.39 Y37.64 E736.95556
G0 F9000 X50.99 Y38.04
G1 F3000 X50.99 Y18.24 E737.84460
G1 X79.79 Y18.24 E739.13776
G1 X79.79 Y20.04 E739.21858
G1 X54.79 Y20.04 E740.34111
G1 X54.79 Y38.04 E741.14933
G1 X50.99 Y38.04 E741.31996
G0 F9000 X50.59 Y38.44
;TYPE:WALL-OUTER
G1 F3000 X50.59 Y17.84 E742.24492
G1 X80.19 Y17.84 E743.57400
G1 X80.19 Y20.44 E743.69074
G1 X55.19 Y20.44 E744.81327
G1 X55.19 Y38.44 E745.62149
G1 X50.59 Y38.44 E745.82803
G0 F9000 X50.80 Y38.14
G0 X53.45 Y36.48
;TYPE:FILL
G1 F3000 X52.33 Y35.36 E745.89915
G0 F9000 X52.33 Y32.52
G1 F3000 X53.45 Y31.40 E745.97027
G0 F9000 X53.45 Y25.16
G1 F3000 X52.33 Y24.05 E746.04139
G0 F9000 X52.33 Y21.21
G1 F3000 X53.45 Y20.09 E746.11251
G1 F1200 E745.61251
G0 F9000 X51.79 Y13.04
;TYPE:WALL-INNER
G1 F1200 E746.11251
G1 F3000 X51.79 Y12.52 E746.13604
G1 X78.99 Y12.52 E747.35735
G1 X78.99 Y13.04 E747.38088
G1 X51.79 Y13.04 E748.60220
G0 F9000 X51.39 Y13.44
G1 F3000 X51.39 Y12.12 E748.66164
G1 X79.39 Y12.12 E749.91888
G1 X79.39 Y13.44 E749.97833
G1 X51.39 Y13.44 E751.23556
G0 F9000 X50.99 Y13.84
G1 F3000 X50.99 Y11.72 E751.33093
G1 X79.79 Y11.72 E752.62408
G1 X79.79 Y13.84 E752.71945
G1 X50.99 Y13.84 E754.01261
G0 F9000 X50.59 Y14.24
;TYPE:WALL-OUTER
G1 F3000 X50.59 Y11.32 E754.14390
G1 X80.19 Y11.32 E755.47297
G1 X80.19 Y14.24 E755.60427
G1 X50.59 Y14.24 E756.93334
G0 F9000 X50.80 Y13.94
G0 X51.97 Y12.66
;TYPE:FILL
G1 F3000 X52.24 Y12.78 E756.94874
G1 X52.52 Y12.78 E756.96412
G1 X52.94 Y12.78 E756.97949
G1 X53.51 Y12.78 E756.99493
G1 X54.08 Y12.78 E757.01028
G1 X54.64 Y12.78 E757.02566
G1 X55.21 Y12.78 E757.04109
G1 X55.77 Y12.78 E757.05644
G1 X56.34 Y12.78 E757.07182
G1 X56.90 Y12.78 E757.08726
G1 X57.47 Y12.78 E757.10261
G1 X58.03 Y12.78 E757.11798
G1 X58.60 Y12.78 E757.13336
G1 X59.17 Y12.78 E757.14871
G1 X59.73 Y12.78 E757.16408
G1 X60.30 Y12.78 E757.17946
G1 X60.67 Y12.90 E757.19485
G1 X60.95 Y12.66 E757.21033
G1 X61.43 Y12.78 E757.22569
G1 X61.99 Y12.78 E757.24106
G1 X62.56 Y12.78 E757.25650
G1 X63.13 Y12.78 E757.27185
G1 X63.55 Y12.78 E757.28721
G1 X63.83 Y12.78 E757.30260
G1 X64.26 Y12.78 E757.31801
G1 X64.82 Y12.78 E757.33336
G1 X65.39 Y12.78 E757.34873
G1 X65.95 Y12.78 E757.36417
G1 X66.52 Y12.78 E757.37952
G1 X67.09 Y12.78 E757.39489
G1 X67.65 Y12.78 E757.41033
G1 X68.22 Y12.78 E757.42568
G1 X68.78 Y12.78 E757.44106
G1 X69.35 Y12.78 E757.45643
G1 X69.91 Y12.78 E757.47178
G1 X70.48 Y12.78 E757.48716
G1 X71.05 Y12.78 E757.50253
G1 X71.61 Y12.78 E757.51797
G1 X71.98 Y12.90 E757.53337
G1 X72.27 Y12.66 E757.54885
G1 X72.74 Y12.78 E757.56420
G1 X73.31 Y12.78 E757.57964
G1 X73.87 Y12.78 E757.59499
G1 X74.44 Y12.78 E757.61037
G1 X74.86 Y12.78 E757.62579
G1 X75.15 Y12.78 E757.64116
G1 X75.57 Y12.78 E757.65654
G1 X76.14 Y12.78 E757.67191
G1 X76.70 Y12.78 E757.68735
G1 X77.27 Y12.78 E757.70270
G1 X77.83 Y12.78 E757.71808
G1 X78.40 Y12.78 E757.73351
G1 X78.80 Y12.90 E757.75246
G1 F1200 E757.25246
G0 F9000 X49.69 Y22.79
;TYPE:SUPPORT
G1 F1200 E757.75246
G1 F3000 X49.69 Y39.12 E758.48583
G1 X42.89 Y39.12 E758.79116
G1 X42.89 Y26.19 E759.37187
G1 X49.69 Y22.79 E759.71324
G0 F9000 X49.75 Y23.99
G1 F3000 X47.14 Y23.99 E759.83052
G0 F9000 X47.21 Y24.14
G0 X45.39 Y25.05
G0 X45.32 Y24.90
G1 F3000 X45.32 Y39.18 E760.47153
G0 F9000 X45.32 Y39.02
G0 X42.99 Y34.66
G0 X42.83 Y34.66
G1 F3000 X49.75 Y34.66 E760.78224
G0 F9000 X49.59 Y34.66
G0 X49.59 Y29.33
G0 X49.75 Y29.33
G1 F3000 X42.83 Y29.33 E761.09296
;LAYER:19
G1 F1200 E760.59296
G0 F9000 X52.19 Y36.84 Z6.00
;TYPE:WALL-INNER
G1 F1200 E761.09296
G1 F3000 X52.19 Y19.44 E761.87424
G1 X53.59 Y19.44 E761.93710
G1 X53.59 Y36.84 E762.71838
G1 X52.19 Y36.84 E762.78124
G0 F9000 X51.79 Y37.24
G1 F3000 X51.79 Y19.04 E763.59845
G1 X78.99 Y19.04 E764.81976
G1 X78.99 Y19.24 E764.82874
G1 X53.99 Y19.24 E765.95127
G1 X53.99 Y37.24 E766.75949
G1 X51.79 Y37.24 E766.85827
G0 F9000 X51.39 Y37.64
G1 F3000 X51.39 Y18.64 E767.71139
G1 X79.39 Y18.64 E768.96863
G1 X79.39 Y19.64 E769.01353
G1 X54.39 Y19.64 E770.13606
G1 X54.39 Y37.64 E770.94428
G1 X51.39 Y37.64 E771.07898
G0 F9000 X50.99 Y38.04
G1 F3000 X50.99 Y18.24 E771.96803
G1 X79.79 Y18.24 E773.26118
G1 X79.79 Y20.04 E773.34200
G1 X54.79 Y20.04 E774.46453
G1 X54.79 Y38.04 E775.27275
G1 X50.99 Y38.04 E775.44338
G0 F9000 X50.59 Y38.44
;TYPE:WALL-OUTER
G1 F3000 X50.59 Y17.84 E776.36834
G1 X80.19 Y17.84 E777.69742
G1 X80.19 Y20.44 E777.81416
G1 X55.19 Y20.44 E778.93669
G1 X55.19 Y38.44 E779.74491
G1 X50.59 Y38.44 E779.95146
G0 F9000 X50.80 Y38.14
G0 X53.45 Y36.48
;TYPE:FILL
G1 F3000 X52.33 Y35.36 E780.02258
G0 F9000 X52.33 Y32.52
G1 F3000 X53.45 Y31.40 E780.09370
G0 F9000 X53.45 Y25.16
G1 F3000 X52.33 Y24.05 E780.16482
G0 F9000 X52.33 Y21.21
G1 F3000 X53.45 Y20.09 E780.23594
G1 F1200 E779.73594
G0 F9000 X51.79 Y13.05
;TYPE:WALL-INNER
G1 F1200 E780.23594
G1 F3000 X51.79 Y12.52 E780.25964
G1 X78.99 Y12.52 E781.48096
G1 X78.99 Y13.05 E781.50466
G1 X51.79 Y13.05 E782.72598
G0 F9000 X51.39 Y13.45
G1 F3000 X51.39 Y12.12 E782.78561
G1 X79.39 Y12.12 E784.04284
G1 X79.39 Y13.45 E784.10247
G1 X51.39 Y13.45 E785.35970
G0 F9000 X50.99 Y13.85
G1 F3000 X50.99 Y11.72 E785.45525
G1 X79.79 Y11.72 E786.74840
G1 X79.79 Y13.85 E786.84395
G1 X50.99 Y13.85 E788.13711
G0 F9000 X50.59 Y14.25
;TYPE:WALL-OUTER
G1 F3000 X50.59 Y11.32 E788.26858
G1 X80.19 Y11.32 E789.59765
G1 X80.19 Y14.25 E789.72912
G1 X50.59 Y14.25 E791.05820
G0 F9000 X50.80 Y13.95
G0 X51.93 Y12.84
;TYPE:FILL
G1 F3000 X52.18 Y12.66 E791.06965
G1 X52.47 Y12.91 E791.08534
G1 X52.84 Y12.78 E791.10103
G1 X53.40 Y12.78 E791.11672
G1 X53.97 Y12.78 E791.13238
G1 X54.53 Y12.78 E791.14808
G1 X55.10 Y12.78 E791.16377
G1 X55.66 Y12.78 E791.17944
G1 X56.23 Y12.78 E791.19513
G1 X56.80 Y12.78 E791.21082
G1 X57.36 Y12.78 E791.22649
G1 X57.93 Y12.78 E791.24212
G1 X58.49 Y12.78 E791.25781
G1 X59.06 Y12.78 E791.27348
G1 X59.62 Y12.78 E791.28911
G1 X60.19 Y12.78 E791.30480
G1 X60.61 Y12.78 E791.32046
G1 X60.90 Y12.78 E791.33612
G1 X61.32 Y12.78 E791.35178
G1 X61.89 Y12.78 E791.36747
G1 X62.45 Y12.78 E791.38314
G1 X63.02 Y12.78 E791.39877
G1 X63.50 Y12.66 E791.41445
G1 X63.78 Y12.91 E791.43015
G1 X64.15 Y12.78 E791.44583
G1 X64.72 Y12.78 E791.46150
G1 X65.28 Y12.78 E791.47719
G1 X65.85 Y12.78 E791.49288
G1 X66.41 Y12.78 E791.50855
G1 X66.98 Y12.78 E791.52424
G1 X67.54 Y12.78 E791.53993
G1 X68.11 Y12.78 E791.55560
G1 X68.67 Y12.78 E791.57123
G1 X69.24 Y12.78 E791.58692
G1 X69.81 Y12.78 E791.60259
G1 X70.37 Y12.78 E791.61822
G1 X70.94 Y12.78 E791.63391
G1 X71.50 Y12.78 E791.64958
G1 X71.93 Y12.78 E791.66523
G1 X72.21 Y12.78 E791.68093
G1 X72.64 Y12.78 E791.69662
G1 X73.20 Y12.78 E791.71232
G1 X73.77 Y12.78 E791.72798
G1 X74.33 Y12.78 E791.74368
G1 X74.81 Y12.66 E791.75939
G1 X75.09 Y12.91 E791.77511
G1 X75.46 Y12.78 E791.79076
G1 X76.03 Y12.78 E791.80645
G1 X76.59 Y12.78 E791.82214
G1 X77.16 Y12.78 E791.83781
G1 X77.73 Y12.78 E791.85344
G1 X78.29 Y12.78 E791.86913
G1 X78.70 Y12.66 E791.88818
;LAYER:20
G0 F9000 X78.99 Y12.52 Z6.30
;TYPE:WALL-INNER
G1 F3000 X78.99 Y13.05 E791.91207
G1 X51.79 Y13.05 E793.13338
G1 X51.79 Y12.52 E793.15727
G1 X78.99 Y12.52 E794.37858
G0 F9000 X79.39 Y12.12
G1 F3000 X79.39 Y13.45 E794.43839
G1 X51.39 Y13.45 E795.69562
G1 X51.39 Y12.12 E795.75543
G1 X79.39 Y12.12 E797.01266
G0 F9000 X79.79 Y11.72
G1 F3000 X79.79 Y13.85 E797.10839
G1 X50.99 Y13.85 E798.40155
G1 X50.99 Y11.72 E798.49727
G1 X79.79 Y11.72 E799.79043
G0 F9000 X80.19 Y11.32
;TYPE:WALL-OUTER
G1 F3000 X80.19 Y14.25 E799.92208
G1 X50.59 Y14.25 E801.25115
G1 X50.59 Y11.32 E801.38280
G1 X80.19 Y11.32 E802.71188
G0 F9000 X79.89 Y11.53
G0 X78.81 Y12.91
;TYPE:FILL
G1 F3000 X78.40 Y12.79 E802.72788
G1 X77.84 Y12.79 E802.74382
G1 X77.27 Y12.79 E802.75981
G1 X76.71 Y12.79 E802.77575
G1 X76.14 Y12.79 E802.79170
G1 X75.58 Y12.79 E802.80762
G1 X75.15 Y12.79 E802.82360
G1 X74.87 Y12.79 E802.83958
G1 X74.44 Y12.79 E802.85553
G1 X73.88 Y12.79 E802.87145
G1 X73.31 Y12.79 E802.88739
G1 X72.75 Y12.79 E802.90334
G1 X72.27 Y12.66 E802.91925
G1 X71.98 Y12.91 E802.93524
G1 X71.62 Y12.79 E802.95123
G1 X71.05 Y12.79 E802.96717
G1 X70.48 Y12.79 E802.98309
G1 X69.92 Y12.79 E802.99904
G1 X69.35 Y12.79 E803.01499
G1 X68.79 Y12.79 E803.03091
G1 X68.22 Y12.79 E803.04685
G1 X67.66 Y12.79 E803.06280
G1 X67.09 Y12.79 E803.07875
G1 X66.53 Y12.79 E803.09473
G1 X65.96 Y12.79 E803.11068
G1 X65.39 Y12.79 E803.12663
G1 X64.83 Y12.79 E803.14255
G1 X64.26 Y12.79 E803.15849
G1 X63.84 Y12.79 E803.17447
G1 X63.56 Y12.79 E803.19040
G1 X63.13 Y12.79 E803.20629
G1 X62.56 Y12.79 E803.22224
G1 X62.00 Y12.79 E803.23819
G1 X61.43 Y12.79 E803.25411
G1 X60.95 Y12.66 E803.27005
G1 X60.67 Y12.91 E803.28600
G1 X60.30 Y12.79 E803.30198
G1 X59.74 Y12.79 E803.31790
G1 X59.17 Y12.79 E803.33385
G1 X58.60 Y12.79 E803.34980
G1 X58.04 Y12.79 E803.36572
G1 X57.47 Y12.79 E803.38166
G1 X56.91 Y12.79 E803.39761
G1 X56.34 Y12.79 E803.41356
G1 X55.78 Y12.79 E803.42948
G1 X55.21 Y12.79 E803.44542
G1 X54.65 Y12.79 E803.46137
G1 X54.08 Y12.79 E803.47729
G1 X53.51 Y12.79 E803.49324
G1 X52.95 Y12.79 E803.50919
G1 X52.52 Y12.79 E803.52508
G1 X52.24 Y12.79 E803.54106
G1 X51.97 Y12.66 E803.55432
G1 F1200 E803.05432
G0 F9000 X52.19 Y19.44
;TYPE:WALL-INNER
G1 F1200 E803.55432
G1 F3000 X53.59 Y19.44 E803.61718
G1 X53.59 Y36.84 E804.39846
G1 X45.19 Y36.84 E804.77563
G1 X45.19 Y27.77 E805.18261
G1 X52.19 Y24.44 E805.53077
G1 X52.19 Y19.44 E805.75532
G0 F9000 X51.79 Y19.04
G1 F3000 X78.99 Y19.04 E806.97663
G1 X78.99 Y19.24 E806.98561
G1 X53.99 Y19.24 E808.10814
G1 X53.99 Y37.24 E808.91637
G1 X44.79 Y37.24 E809.32946
G1 X44.79 Y27.52 E809.76572
G1 X51.79 Y24.18 E810.11387
G1 X51.79 Y19.04 E810.34507
G0 F9000 X51.39 Y18.64
G1 F3000 X79.39 Y18.64 E811.60230
G1 X79.39 Y19.64 E811.64720
G1 X54.39 Y19.64 E812.76973
G1 X54.39 Y37.64 E813.57795
G1 X44.39 Y37.64 E814.02697
G1 X44.39 Y27.27 E814.49255
G1 X51.39 Y23.93 E814.84070
G1 X51.39 Y18.64 E815.07850
G0 F9000 X50.99 Y18.24
G1 F3000 X79.79 Y18.24 E816.37165
G1 X79.79 Y20.04 E816.45248
G1 X54.79 Y20.04 E817.57501
G1 X54.79 Y38.04 E818.38323
G1 X43.99 Y38.04 E818.86816
G1 X43.99 Y27.02 E819.36302
G1 X50.99 Y23.68 E819.71117
G1 X50.99 Y18.24 E819.95562
G0 F9000 X50.59 Y17.84
;TYPE:WALL-OUTER
G1 F3000 X80.19 Y17.84 E821.28469
G1 X80.19 Y20.44 E821.40143
G1 X55.19 Y20.44 E822.52396
G1 X55.19 Y38.44 E823.33218
G1 X43.59 Y38.44 E823.85304
G1 X43.59 Y26.76 E824.37717
G1 X50.59 Y23.43 E824.72535
G1 X50.59 Y17.84 E824.97639
G0 F9000 X50.89 Y18.05
G0 X53.45 Y20.09
;TYPE:FILL
G1 F3000 X52.33 Y21.21 E825.04751
G0 F9000 X52.33 Y24.05
G1 F3000 X53.45 Y25.16 E825.11863
G0 F9000 X52.25 Y25.38
G1 F3000 X51.89 Y24.73 E825.15375
G1 X52.25 Y24.82 E825.17040
G0 F9000 X51.31 Y25.01
G1 F3000 X52.25 Y25.95 E825.22986
G0 F9000 X52.25 Y26.51
G1 F3000 X50.93 Y25.19 E825.31368
G0 F9000 X50.55 Y25.37
G1 F3000 X52.25 Y27.08 E825.42182
G0 F9000 X52.25 Y27.64
G1 F3000 X50.16 Y25.56 E825.55432
G0 F9000 X49.78 Y25.74
G1 F3000 X52.25 Y28.21 E825.71110
G0 F9000 X52.25 Y28.77
G1 F3000 X49.40 Y25.92 E825.89223
G0 F9000 X49.02 Y26.10
G1 F3000 X52.25 Y29.34 E826.09768
G0 F9000 X52.25 Y29.91
G1 F3000 X48.63 Y26.29 E826.32749
G0 F9000 X48.25 Y26.47
G1 F3000 X52.25 Y30.47 E826.58158
G0 F9000 X52.25 Y31.04
G1 F3000 X47.87 Y26.65 E826.86000
G0 F9000 X47.48 Y26.84
G1 F3000 X52.25 Y31.60 E827.16277
G0 F9000 X52.25 Y32.17
G1 F3000 X47.10 Y27.02 E827.48989
G0 F9000 X46.72 Y27.20
G1 F3000 X52.25 Y32.73 E827.84129
G0 F9000 X52.25 Y33.30
G1 F3000 X46.33 Y27.38 E828.21702
G0 F9000 X45.95 Y27.57
G1 F3000 X52.25 Y33.87 E828.61710
G0 F9000 X52.25 Y34.43
G1 F3000 X45.57 Y27.75 E829.04147
G0 F9000 X45.33 Y28.08
G1 F3000 X52.25 Y35.00 E829.48096
G0 F9000 X52.25 Y35.56
G1 F3000 X45.33 Y28.64 E829.92044
G0 F9000 X45.33 Y29.21
G1 F3000 X52.25 Y36.13 E830.35992
G0 F9000 X52.25 Y36.69
G1 F3000 X45.33 Y29.77 E830.79940
G0 F9000 X45.33 Y30.34
G1 F3000 X51.69 Y36.70 E831.20307
G0 F9000 X51.12 Y36.70
G1 F3000 X45.33 Y30.90 E831.57083
G0 F9000 X45.33 Y31.47
G1 F3000 X50.56 Y36.70 E831.90268
G0 F9000 X49.99 Y36.70
G1 F3000 X45.33 Y32.04 E832.19859
G0 F9000 X45.33 Y32.60
G1 F3000 X49.42 Y36.70 E832.45859
G0 F9000 X48.86 Y36.70
G1 F3000 X45.33 Y33.17 E832.68268
G0 F9000 X45.33 Y33.73
G1 F3000 X48.29 Y36.70 E832.87083
G0 F9000 X47.73 Y36.70
G1 F3000 X45.33 Y34.30 E833.02307
G0 F9000 X45.33 Y34.86
G1 F3000 X47.16 Y36.70 E833.13941
G0 F9000 X46.59 Y36.70
G1 F3000 X45.33 Y35.43 E833.21980
G0 F9000 X45.33 Y35.99
G1 F3000 X46.03 Y36.70 E833.26428
G0 F9000 X45.46 Y36.70
G1 F3000 X45.33 Y36.56 E833.27285
G0 F9000 X51.73 Y34.76
G1 F3000 X53.45 Y36.48 E833.38207
G0 F9000 X51.73 Y33.12
G1 F3000 X53.45 Y31.40 E833.49129
;LAYER:21
G0 F9000 X53.59 Y36.84 Z6.60
;TYPE:WALL-INNER
G1 F3000 X45.19 Y36.84 E833.86846
G1 X45.19 Y27.77 E834.27544
G1 X52.19 Y24.44 E834.62360
G1 X52.19 Y19.44 E834.84815
G1 X53.59 Y19.44 E834.91101
G1 X53.59 Y36.84 E835.69229
G0 F9000 X53.99 Y37.24
G1 F3000 X44.79 Y37.24 E836.10539
G1 X44.79 Y27.52 E836.54165
G1 X51.79 Y24.18 E836.88980
G1 X51.79 Y19.04 E837.12100
G1 X78.99 Y19.04 E838.34231
G1 X78.99 Y19.24 E838.35129
G1 X53.99 Y19.24 E839.47382
G1 X53.99 Y37.24 E840.28204
G0 F9000 X54.39 Y37.64
G1 F3000 X44.39 Y37.64 E840.73105
G1 X44.39 Y27.27 E841.19663
G1 X51.39 Y23.93 E841.54479
G1 X51.39 Y18.64 E841.78259
G1 X79.39 Y18.64 E843.03982
G1 X79.39 Y19.64 E843.08472
G1 X54.39 Y19.64 E844.20725
G1 X54.39 Y37.64 E845.01547
G0 F9000 X54.79 Y38.04
G1 F3000 X43.99 Y38.04 E845.50041
G1 X43.99 Y27.02 E845.99526
G1 X50.99 Y23.68 E846.34342
G1 X50.99 Y18.24 E846.58786
G1 X79.79 Y18.24 E847.88101
G1 X79.79 Y20.04 E847.96184
G1 X54.79 Y20.04 E849.08437
G1 X54.79 Y38.04 E849.89259
G0 F9000 X55.19 Y38.44
;TYPE:WALL-OUTER
G1 F3000 X43.59 Y38.44 E850.41344
G1 X43.59 Y26.76 E850.93757
G1 X50.59 Y23.43 E851.28575
G1 X50.59 Y17.84 E851.53679
G1 X80.19 Y17.84 E852.86587
G1 X80.19 Y20.44 E852.98261
G1 X55.19 Y20.44 E854.10514
G1 X55.19 Y38.44 E854.91336
G0 F9000 X54.89 Y38.23
G0 X53.45 Y36.48
;TYPE:FILL
G1 F3000 X51.73 Y34.76 E855.02258
G0 F9000 X52.25 Y34.58
G1 F3000 X50.14 Y36.70 E855.15682
G0 F9000 X49.57 Y36.70
G1 F3000 X52.25 Y34.02 E855.32697
G0 F9000 X52.25 Y33.45
G1 F3000 X49.01 Y36.70 E855.53302
G0 F9000 X48.44 Y36.70
G1 F3000 X52.25 Y32.88 E855.77502
G0 F9000 X52.25 Y32.32
G1 F3000 X47.87 Y36.70 E856.05296
G0 F9000 X47.31 Y36.70
G1 F3000 X52.25 Y31.75 E856.36678
G0 F9000 X52.25 Y31.19
G1 F3000 X46.74 Y36.70 E856.71653
G0 F9000 X46.18 Y36.70
G1 F3000 X52.25 Y30.62 E857.10223
G0 F9000 X52.25 Y30.06
G1 F3000 X45.61 Y36.70 E857.52384
G0 F9000 X45.33 Y36.41
G1 F3000 X52.25 Y29.49 E857.96326
G0 F9000 X52.25 Y28.93
G1 F3000 X45.33 Y35.84 E858.40268
G0 F9000 X45.33 Y35.28
G1 F3000 X52.25 Y28.36 E858.84210
G0 F9000 X52.25 Y27.79
G1 F3000 X45.33 Y34.71 E859.28148
G0 F9000 X45.33 Y34.15
G1 F3000 X52.25 Y27.23 E859.72090
G0 F9000 X52.25 Y26.66
G1 F3000 X45.33 Y33.58 E860.16032
G0 F9000 X45.33 Y33.02
G1 F3000 X52.25 Y26.10 E860.59971
G0 F9000 X52.25 Y25.53
G1 F3000 X45.33 Y32.45 E861.03913
G0 F9000 X45.33 Y31.89
G1 F3000 X52.25 Y24.97 E861.47855
G0 F9000 X51.94 Y24.71
G1 F3000 X45.33 Y31.32 E861.89822
G0 F9000 X45.33 Y30.75
G1 F3000 X50.86 Y25.23 E862.24931
G0 F9000 X49.78 Y25.74
G1 F3000 X45.33 Y30.19 E862.53176
G0 F9000 X45.33 Y29.62
G1 F3000 X48.70 Y26.25 E862.74556
G0 F9000 X47.62 Y26.77
G1 F3000 X45.33 Y29.06 E862.89072
G0 F9000 X45.33 Y28.49
G1 F3000 X46.54 Y27.29 E862.96730
G0 F9000 X45.45 Y27.80
G1 F3000 X45.33 Y27.93 E862.97518
G0 F9000 X52.33 Y24.05
G1 F3000 X53.45 Y25.16 E863.04630
G0 F9000 X52.33 Y21.21
G1 F3000 X53.45 Y20.09 E863.11742
G0 F9000 X53.45 Y31.40
G1 F3000 X51.73 Y33.12 E863.22664
G0 F9000 X52.25 Y35.15
G1 F3000 X50.70 Y36.70 E863.32493
G0 F9000 X51.27 Y36.70
G1 F3000 X52.25 Y35.71 E863.38732
G0 F9000 X52.25 Y36.28
G1 F3000 X51.83 Y36.70 E863.41380
G1 F1200 E862.91380
G0 F9000 X51.79 Y13.06
;TYPE:WALL-INNER
G1 F1200 E863.41380
G1 F3000 X51.79 Y12.52 E863.43787
G1 X78.99 Y12.52 E864.65918
G1 X78.99 Y13.06 E864.68325
G1 X51.79 Y13.06 E865.90456
G0 F9000 X51.39 Y13.46
G1 F3000 X51.39 Y12.12 E865.96455
G1 X79.39 Y12.12 E867.22178
G1 X79.39 Y13.46 E867.28177
G1 X51.39 Y13.46 E868.53900
G0 F9000 X50.99 Y13.86
G1 F3000 X50.99 Y11.72 E868.63491
G1 X79.79 Y11.72 E869.92807
G1 X79.79 Y13.86 E870.02397
G1 X50.99 Y13.86 E871.31713
G0 F9000 X50.59 Y14.26
;TYPE:WALL-OUTER
G1 F3000 X50.59 Y11.32 E871.44896
G1 X80.19 Y11.32 E872.77803
G1 X80.19 Y14.26 E872.90986
G1 X50.59 Y14.26 E874.23894
G0 F9000 X50.80 Y13.96
G0 X52.26 Y12.66
;TYPE:FILL
G1 F3000 X52.51 Y12.91 E874.25519
G0 F9000 X60.62 Y12.91
G1 F3000 X60.88 Y12.66 E874.27145
G0 F9000 X63.57 Y12.66
G1 F3000 X63.83 Y12.91 E874.28767
G0 F9000 X71.94 Y12.91
G1 F3000 X72.19 Y12.66 E874.30393
G0 F9000 X74.88 Y12.66
G1 F3000 X75.14 Y12.91 E874.32019
;LAYER:22
G0 F9000 X78.99 Y13.06 Z6.90
;TYPE:WALL-INNER
G1 F3000 X51.79 Y13.06 E875.54150
G1 X51.79 Y12.52 E875.56574
G1 X78.99 Y12.52 E876.78706
G1 X78.99 Y13.06 E876.81130
G0 F9000 X79.39 Y13.46
G1 F3000 X51.39 Y13.46 E878.06854
G1 X51.39 Y12.12 E878.12870
G1 X79.39 Y12.12 E879.38594
G1 X79.39 Y13.46 E879.44610
G0 F9000 X79.79 Y13.86
G1 F3000 X50.99 Y13.86 E880.73926
G1 X50.99 Y11.72 E880.83535
G1 X79.79 Y11.72 E882.12850
G1 X79.79 Y13.86 E882.22459
G0 F9000 X80.19 Y14.26
;TYPE:WALL-OUTER
G1 F3000 X50.59 Y14.26 E883.55367
G1 X50.59 Y11.32 E883.68567
G1 X80.19 Y11.32 E885.01475
G1 X80.19 Y14.26 E885.14676
G0 F9000 X79.89 Y14.05
G0 X75.14 Y12.92
;TYPE:FILL
G1 F3000 X74.88 Y12.66 E885.16324
G0 F9000 X72.19 Y12.66
G1 F3000 X71.93 Y12.92 E885.17975
G0 F9000 X63.83 Y12.92
G1 F3000 X63.57 Y12.66 E885.19619
G0 F9000 X60.88 Y12.66
G1 F3000 X60.62 Y12.92 E885.21270
G0 F9000 X52.52 Y12.92
G1 F3000 X52.26 Y12.66 E885.22915
G1 F1200 E884.72915
G0 F9000 X52.19 Y19.44
;TYPE:WALL-INNER
G1 F1200 E885.22915
G1 F3000 X53.59 Y19.44 E885.29201
G1 X53.59 Y36.84 E886.07329
G1 X45.19 Y36.84 E886.45046
G1 X45.19 Y27.77 E886.85745
G1 X52.19 Y24.44 E887.20560
G1 X52.19 Y19.44 E887.43015
G0 F9000 X51.79 Y19.04
G1 F3000 X78.99 Y19.04 E888.65147
G1 X78.99 Y19.24 E888.66045
G1 X53.99 Y19.24 E889.78298
G1 X53.99 Y37.24 E890.59120
G1 X44.79 Y37.24 E891.00429
G1 X44.79 Y27.52 E891.44055
G1 X51.79 Y24.18 E891.78871
G1 X51.79 Y19.04 E892.01990
G0 F9000 X51.39 Y18.64
G1 F3000 X79.39 Y18.64 E893.27713
G1 X79.39 Y19.64 E893.32204
G1 X54.39 Y19.64 E894.44457
G1 X54.39 Y37.64 E895.25279
G1 X44.39 Y37.64 E895.70180
G1 X44.39 Y27.27 E896.16738
G1 X51.39 Y23.93 E896.51554
G1 X51.39 Y18.64 E896.75333
G0 F9000 X50.99 Y18.24
G1 F3000 X79.79 Y18.24 E898.04649
G1 X79.79 Y20.04 E898.12731
G1 X54.79 Y20.04 E899.24984
G1 X54.79 Y38.04 E900.05806
G1 X43.99 Y38.04 E900.54299
G1 X43.99 Y27.02 E901.03785
G1 X50.99 Y23.68 E901.38601
G1 X50.99 Y18.24 E901.63045
G0 F9000 X50.59 Y17.84
;TYPE:WALL-OUTER
G1 F3000 X80.19 Y17.84 E902.95952
G1 X80.19 Y20.44 E903.07627
G1 X55.19 Y20.44 E904.19880
G1 X55.19 Y38.44 E905.00702
G1 X43.59 Y38.44 E905.52787
G1 X43.59 Y26.76 E906.05200
G1 X50.59 Y23.43 E906.40018
G1 X50.59 Y17.84 E906.65122
G0 F9000 X50.89 Y18.05
G0 X53.45 Y20.09
;TYPE:FILL
G1 F3000 X52.33 Y21.21 E906.72234
G0 F9000 X52.33 Y24.05
G1 F3000 X53.45 Y25.16 E906.79346
G0 F9000 X52.25 Y25.38
G1 F3000 X51.89 Y24.73 E906.82858
G1 X52.25 Y24.82 E906.84523
G0 F9000 X51.31 Y25.01
G1 F3000 X52.25 Y25.95 E906.90470
G0 F9000 X52.25 Y26.51
G1 F3000 X50.93 Y25.19 E906.98851
G0 F9000 X50.55 Y25.37
G1 F3000 X52.25 Y27.08 E907.09666
G0 F9000 X52.25 Y27.64
G1 F3000 X50.16 Y25.56 E907.22915
G0 F9000 X49.78 Y25.74
G1 F3000 X52.25 Y28.21 E907.38593
G0 F9000 X52.25 Y28.77
G1 F3000 X49.40 Y25.92 E907.56706
G0 F9000 X49.02 Y26.10
G1 F3000 X52.25 Y29.34 E907.77252
G0 F9000 X52.25 Y29.91
G1 F3000 X48.63 Y26.29 E908.00232
G0 F9000 X48.25 Y26.47
G1 F3000 X52.25 Y30.47 E908.25642
G0 F9000 X52.25 Y31.04
G1 F3000 X47.87 Y26.65 E908.53483
G0 F9000 X47.48 Y26.84
G1 F3000 X52.25 Y31.60 E908.83760
G0 F9000 X52.25 Y32.17
G1 F3000 X47.10 Y27.02 E909.16472
G0 F9000 X46.72 Y27.20
G1 F3000 X52.25 Y32.73 E909.51613
G0 F9000 X52.25 Y33.30
G1 F3000 X46.33 Y27.38 E909.89186
G0 F9000 X45.95 Y27.57
G1 F3000 X52.25 Y33.87 E910.29194
G0 F9000 X52.25 Y34.43
G1 F3000 X45.57 Y27.75 E910.71631
G0 F9000 X45.33 Y28.08
G1 F3000 X52.25 Y35.00 E911.15579
G0 F9000 X52.25 Y35.56
G1 F3000 X45.33 Y28.64 E911.59527
G0 F9000 X45.33 Y29.21
G1 F3000 X52.25 Y36.13 E912.03475
G0 F9000 X52.25 Y36.69
G1 F3000 X45.33 Y29.77 E912.47424
G0 F9000 X45.33 Y30.34
G1 F3000 X51.69 Y36.70 E912.87790
G0 F9000 X51.12 Y36.70
G1 F3000 X45.33 Y30.90 E913.24566
G0 F9000 X45.33 Y31.47
G1 F3000 X50.56 Y36.70 E913.57751
G0 F9000 X49.99 Y36.70
G1 F3000 X45.33 Y32.04 E913.87342
G0 F9000 X45.33 Y32.60
G1 F3000 X49.42 Y36.70 E914.13342
G0 F9000 X48.86 Y36.70
G1 F3000 X45.33 Y33.17 E914.35752
G0 F9000 X45.33 Y33.73
G1 F3000 X48.29 Y36.70 E914.54567
G0 F9000 X47.73 Y36.70
G1 F3000 X45.33 Y34.30 E914.69791
G0 F9000 X45.33 Y34.86
G1 F3000 X47.16 Y36.70 E914.81424
G0 F9000 X46.59 Y36.70
G1 F3000 X45.33 Y35.43 E914.89463
G0 F9000 X45.33 Y35.99
G1 F3000 X46.03 Y36.70 E914.93911
G0 F9000 X45.46 Y36.70
G1 F3000 X45.33 Y36.56 E914.94768
G0 F9000 X51.73 Y34.76
G1 F3000 X53.45 Y36.48 E915.05690
G0 F9000 X51.73 Y33.12
G1 F3000 X53.45 Y31.40 E915.16612
;LAYER:23
G0 F9000 X53.59 Y36.84 Z7.20
;TYPE:WALL-INNER
